; generated by PrusaSlicer 2.3.2+win64 on 2021-09-30 at 18:44:28 UTC

; 

; external perimeters extrusion width = 0.45mm
; perimeters extrusion width = 0.45mm
; infill extrusion width = 0.45mm
; solid infill extrusion width = 0.45mm
; top infill extrusion width = 0.40mm
; support material extrusion width = 0.35mm
; first layer extrusion width = 0.42mm

M73 P0 R121
M73 Q0 S123
M201 X1000 Y1000 Z200 E5000 ; sets maximum accelerations, mm/sec^2
M203 X200 Y200 Z12 E120 ; sets maximum feedrates, mm/sec
M204 P1250 R1250 T1250 ; sets acceleration (P, T) and retract acceleration (R), mm/sec^2
M205 X8.00 Y8.00 Z0.40 E4.50 ; sets the jerk limits, mm/sec
M205 S0 T0 ; sets the minimum extruding and travel feed rate, mm/sec
M107
;TYPE:Custom
M862.3 P "MK3S" ; printer model check
M862.1 P0.4 ; nozzle diameter check
M115 U3.10.0 ; tell printer latest fw version
G90 ; use absolute coordinates
M83 ; extruder relative mode
M104 S215 ; set extruder temp
M140 S60 ; set bed temp
M190 S60 ; wait for bed temp
M109 S215 ; wait for extruder temp
G28 W ; home all without mesh bed level
G80 ; mesh bed leveling
G1 Y-3.0 F1000.0 ; go outside print area
G92 E0.0
G1 X60.0 E9.0 F1000.0 ; intro line
G1 X100.0 E12.5 F1000.0 ; intro line
G92 E0.0
M221 S95

; Don't change E values below. Excessive value can damage the printer.
M907 E430 ; set extruder motor current
G21 ; set units to millimeters
G90 ; use absolute coordinates
M83 ; use relative distances for extrusion
M900 K0.05 ; Filament gcode LA 1.5
M900 K30 ; Filament gcode LA 1.0
;LAYER_CHANGE
;Z:0.2
;HEIGHT:0.2
;BEFORE_LAYER_CHANGE
G92 E0.0
;0.2


G1 E-0.80000 F2100.000
G1 Z0.400 F10800.000
;AFTER_LAYER_CHANGE
;0.2
G1 X67.647 Y75.662
G1 Z0.200
G1 E0.80000 F2100.000
M204 S1000
;TYPE:Skirt
;WIDTH:0.42
G1 F1200.000
G1 X67.781 Y75.147 E0.01668
G1 X68.029 Y74.672 E0.01680
G1 X68.373 Y74.267 E0.01668
G1 X68.803 Y73.946 E0.01680
G1 X77.229 Y69.723 E0.29553
G1 X77.726 Y69.553 E0.01645
G1 X78.246 Y69.496 E0.01643
G1 X171.861 Y69.668 E2.93523
G1 X172.752 Y69.884 E0.02872
G1 X181.272 Y73.992 E0.29658
G1 X181.726 Y74.366 E0.01846
G1 X182.077 Y74.844 E0.01858
G1 X182.297 Y75.390 E0.01846
G1 X182.377 Y75.974 E0.01846
G1 X182.377 Y134.015 E1.81986
G1 X182.281 Y134.669 E0.02071
G1 X182.007 Y135.274 E0.02083
G1 X181.629 Y135.731 E0.01858
G1 X181.154 Y136.078 E0.01846
G1 X180.604 Y136.299 E0.01858
G1 X180.016 Y136.377 E0.01858
G1 X69.992 Y136.377 E3.44972
G1 X69.335 Y136.282 E0.02083
G1 X68.726 Y136.007 E0.02095
G1 X68.274 Y135.635 E0.01835
G1 X67.927 Y135.164 E0.01835
G1 X67.706 Y134.622 E0.01835
G1 X67.623 Y134.043 E0.01835
G1 X67.647 Y75.722 E1.82861
; printing object EnergyMonitor Case v1.0 jig.STL id:0 copy 0
;WIPE_START
G1 F8640.000
G1 X67.781 Y75.147 E-0.13633
G1 X68.029 Y74.672 E-0.12375
G1 X68.373 Y74.267 E-0.12287
G1 X68.803 Y73.946 E-0.12375
G1 X69.784 Y73.455 E-0.25331
;WIPE_END
G1 E-0.04000 F2100.000
G1 Z0.600 F10800.000
G1 X78.242 Y71.873
G1 Z0.200
G1 E0.80000 F2100.000
;TYPE:Support material
G1 F1200.000
G1 X78.242 Y75.586 E0.11642
G1 X78.996 Y75.586 E0.02365
G1 X78.996 Y72.043 E0.11110
G1 X79.750 Y72.043 E0.02365
G1 X79.750 Y75.586 E0.11110
G1 X80.505 Y75.586 E0.02365
G1 X80.505 Y72.043 E0.11110
G1 X81.259 Y72.043 E0.02365
G1 X81.259 Y75.586 E0.11110
G1 X82.013 Y75.586 E0.02365
G1 X82.013 Y72.043 E0.11110
G1 X82.767 Y72.043 E0.02365
G1 X82.767 Y75.586 E0.11110
G1 X83.521 Y75.586 E0.02365
G1 X83.521 Y72.043 E0.11110
G1 X84.275 Y72.043 E0.02365
G1 X84.275 Y75.586 E0.11110
G1 X85.030 Y75.586 E0.02365
G1 X85.030 Y72.043 E0.11110
G1 X85.784 Y72.043 E0.02365
G1 X85.784 Y75.586 E0.11110
G1 X86.538 Y75.586 E0.02365
G1 X86.538 Y72.043 E0.11110
G1 X87.292 Y72.043 E0.02365
G1 X87.292 Y75.586 E0.11110
G1 X88.046 Y75.586 E0.02365
G1 X88.046 Y72.043 E0.11110
M73 Q0 S122
G1 X88.800 Y72.043 E0.02365
G1 X88.800 Y75.586 E0.11110
G1 X89.555 Y75.586 E0.02365
G1 X89.555 Y72.043 E0.11110
G1 X90.309 Y72.043 E0.02365
G1 X90.309 Y75.586 E0.11110
G1 X91.063 Y75.586 E0.02365
G1 X91.063 Y72.043 E0.11110
G1 X91.817 Y72.043 E0.02365
G1 X91.817 Y75.586 E0.11110
G1 X92.571 Y75.586 E0.02365
G1 X92.571 Y72.043 E0.11110
G1 X93.325 Y72.043 E0.02365
G1 X93.325 Y75.586 E0.11110
G1 X94.079 Y75.586 E0.02365
G1 X94.079 Y72.043 E0.11110
G1 X94.834 Y72.043 E0.02365
G1 X94.834 Y75.586 E0.11110
G1 X95.588 Y75.586 E0.02365
G1 X95.588 Y72.043 E0.11110
G1 X96.342 Y72.043 E0.02365
G1 X96.342 Y75.586 E0.11110
G1 X97.096 Y75.586 E0.02365
G1 X97.096 Y72.043 E0.11110
G1 X97.850 Y72.043 E0.02365
G1 X97.850 Y75.586 E0.11110
G1 X98.604 Y75.586 E0.02365
G1 X98.604 Y72.043 E0.11110
G1 X99.359 Y72.043 E0.02365
G1 X99.359 Y75.586 E0.11110
G1 X100.113 Y75.586 E0.02365
G1 X100.113 Y72.043 E0.11110
G1 X100.867 Y72.043 E0.02365
G1 X100.867 Y75.586 E0.11110
G1 X101.621 Y75.586 E0.02365
G1 X101.621 Y72.043 E0.11110
G1 X102.375 Y72.043 E0.02365
G1 X102.375 Y75.586 E0.11110
G1 X103.129 Y75.586 E0.02365
G1 X103.129 Y72.043 E0.11110
G1 X103.884 Y72.043 E0.02365
G1 X103.884 Y75.586 E0.11110
G1 X104.638 Y75.586 E0.02365
G1 X104.638 Y72.043 E0.11110
G1 X105.392 Y72.043 E0.02365
G1 X105.392 Y75.586 E0.11110
G1 X106.146 Y75.586 E0.02365
G1 X106.146 Y72.043 E0.11110
G1 X106.900 Y72.043 E0.02365
G1 X106.900 Y75.586 E0.11110
G1 X107.654 Y75.586 E0.02365
G1 X107.654 Y72.043 E0.11110
G1 X108.409 Y72.043 E0.02365
G1 X108.409 Y75.586 E0.11110
G1 X109.163 Y75.586 E0.02365
G1 X109.163 Y72.043 E0.11110
G1 X109.917 Y72.043 E0.02365
G1 X109.917 Y75.586 E0.11110
G1 X110.671 Y75.586 E0.02365
G1 X110.671 Y72.043 E0.11110
G1 X111.425 Y72.043 E0.02365
G1 X111.425 Y75.756 E0.11642
;WIPE_START
G1 F8640.000
G1 X111.425 Y72.465 E-0.76000
;WIPE_END
G1 E-0.04000 F2100.000
G1 Z0.600 F10800.000
G1 X111.425 Y82.757
G1 Z0.200
G1 E0.80000 F2100.000
G1 F1200.000
G1 X111.425 Y79.114 E0.11423
G1 X110.671 Y79.114 E0.02365
G1 X110.671 Y82.587 E0.10891
G1 X109.917 Y82.587 E0.02365
G1 X109.917 Y79.114 E0.10891
G1 X109.163 Y79.114 E0.02365
G1 X109.163 Y82.587 E0.10891
G1 X108.409 Y82.587 E0.02365
G1 X108.409 Y79.114 E0.10891
G1 X107.654 Y79.114 E0.02365
G1 X107.654 Y82.587 E0.10891
G1 X106.900 Y82.587 E0.02365
G1 X106.900 Y79.114 E0.10891
G1 X106.146 Y79.114 E0.02365
G1 X106.146 Y82.587 E0.10891
G1 X105.392 Y82.587 E0.02365
G1 X105.392 Y79.114 E0.10891
G1 X104.638 Y79.114 E0.02365
G1 X104.638 Y82.587 E0.10891
G1 X103.884 Y82.587 E0.02365
G1 X103.884 Y79.114 E0.10891
G1 X103.129 Y79.114 E0.02365
G1 X103.129 Y82.587 E0.10891
G1 X102.375 Y82.587 E0.02365
G1 X102.375 Y79.114 E0.10891
G1 X101.621 Y79.114 E0.02365
G1 X101.621 Y82.587 E0.10891
G1 X100.867 Y82.587 E0.02365
G1 X100.867 Y79.114 E0.10891
G1 X100.113 Y79.114 E0.02365
G1 X100.113 Y82.587 E0.10891
G1 X99.359 Y82.587 E0.02365
G1 X99.359 Y79.114 E0.10891
G1 X98.604 Y79.114 E0.02365
G1 X98.604 Y82.587 E0.10891
G1 X97.850 Y82.587 E0.02365
G1 X97.850 Y79.114 E0.10891
G1 X97.096 Y79.114 E0.02365
G1 X97.096 Y82.587 E0.10891
G1 X96.342 Y82.587 E0.02365
G1 X96.342 Y79.114 E0.10891
G1 X95.588 Y79.114 E0.02365
G1 X95.588 Y82.587 E0.10891
G1 X94.834 Y82.587 E0.02365
G1 X94.834 Y79.114 E0.10891
G1 X94.079 Y79.114 E0.02365
G1 X94.079 Y82.587 E0.10891
G1 X93.325 Y82.587 E0.02365
G1 X93.325 Y79.114 E0.10891
G1 X92.571 Y79.114 E0.02365
G1 X92.571 Y82.587 E0.10891
G1 X91.817 Y82.587 E0.02365
G1 X91.817 Y79.114 E0.10891
G1 X91.063 Y79.114 E0.02365
G1 X91.063 Y82.587 E0.10891
G1 X90.309 Y82.587 E0.02365
G1 X90.309 Y79.114 E0.10891
G1 X89.555 Y79.114 E0.02365
G1 X89.555 Y82.587 E0.10891
G1 X88.800 Y82.587 E0.02365
G1 X88.800 Y79.114 E0.10891
G1 X88.046 Y79.114 E0.02365
G1 X88.046 Y82.587 E0.10891
G1 X87.292 Y82.587 E0.02365
G1 X87.292 Y79.114 E0.10891
G1 X86.538 Y79.114 E0.02365
G1 X86.538 Y82.587 E0.10891
G1 X85.784 Y82.587 E0.02365
G1 X85.784 Y79.114 E0.10891
G1 X85.030 Y79.114 E0.02365
G1 X85.030 Y82.587 E0.10891
G1 X84.275 Y82.587 E0.02365
G1 X84.275 Y79.114 E0.10891
G1 X83.521 Y79.114 E0.02365
G1 X83.521 Y82.587 E0.10891
G1 X82.767 Y82.587 E0.02365
G1 X82.767 Y78.944 E0.11423
;WIPE_START
G1 F8640.000
G1 X82.767 Y82.235 E-0.76000
;WIPE_END
G1 E-0.04000 F2100.000
G1 Z0.600 F10800.000
G1 X167.233 Y82.757
G1 Z0.200
G1 E0.80000 F2100.000
G1 F1200.000
G1 X167.233 Y79.114 E0.11423
G1 X166.479 Y79.114 E0.02365
G1 X166.479 Y82.587 E0.10891
M73 P0 R120
G1 X165.725 Y82.587 E0.02365
G1 X165.725 Y79.114 E0.10891
G1 X164.970 Y79.114 E0.02365
G1 X164.970 Y82.587 E0.10891
G1 X164.216 Y82.587 E0.02365
G1 X164.216 Y79.114 E0.10891
G1 X163.462 Y79.114 E0.02365
G1 X163.462 Y82.587 E0.10891
G1 X162.708 Y82.587 E0.02365
G1 X162.708 Y79.114 E0.10891
G1 X161.954 Y79.114 E0.02365
G1 X161.954 Y82.587 E0.10891
G1 X161.200 Y82.587 E0.02365
G1 X161.200 Y79.114 E0.10891
G1 X160.445 Y79.114 E0.02365
G1 X160.445 Y82.587 E0.10891
G1 X159.691 Y82.587 E0.02365
G1 X159.691 Y79.114 E0.10891
G1 X158.937 Y79.114 E0.02365
G1 X158.937 Y82.587 E0.10891
G1 X158.183 Y82.587 E0.02365
G1 X158.183 Y79.114 E0.10891
G1 X157.429 Y79.114 E0.02365
G1 X157.429 Y82.587 E0.10891
G1 X156.675 Y82.587 E0.02365
G1 X156.675 Y79.114 E0.10891
G1 X155.921 Y79.114 E0.02365
G1 X155.921 Y82.587 E0.10891
G1 X155.166 Y82.587 E0.02365
G1 X155.166 Y79.114 E0.10891
G1 X154.412 Y79.114 E0.02365
G1 X154.412 Y82.587 E0.10891
G1 X153.658 Y82.587 E0.02365
G1 X153.658 Y79.114 E0.10891
G1 X152.904 Y79.114 E0.02365
G1 X152.904 Y82.587 E0.10891
G1 X152.150 Y82.587 E0.02365
G1 X152.150 Y79.114 E0.10891
G1 X151.396 Y79.114 E0.02365
G1 X151.396 Y82.587 E0.10891
G1 X150.641 Y82.587 E0.02365
G1 X150.641 Y79.114 E0.10891
G1 X149.887 Y79.114 E0.02365
G1 X149.887 Y82.587 E0.10891
G1 X149.133 Y82.587 E0.02365
G1 X149.133 Y79.114 E0.10891
G1 X148.379 Y79.114 E0.02365
G1 X148.379 Y82.587 E0.10891
G1 X147.625 Y82.587 E0.02365
G1 X147.625 Y79.114 E0.10891
G1 X146.871 Y79.114 E0.02365
G1 X146.871 Y82.587 E0.10891
G1 X146.116 Y82.587 E0.02365
G1 X146.116 Y79.114 E0.10891
G1 X145.362 Y79.114 E0.02365
G1 X145.362 Y82.587 E0.10891
G1 X144.608 Y82.587 E0.02365
G1 X144.608 Y79.114 E0.10891
G1 X143.854 Y79.114 E0.02365
G1 X143.854 Y82.587 E0.10891
G1 X143.100 Y82.587 E0.02365
G1 X143.100 Y79.114 E0.10891
G1 X142.346 Y79.114 E0.02365
G1 X142.346 Y82.587 E0.10891
G1 X141.591 Y82.587 E0.02365
G1 X141.591 Y79.114 E0.10891
G1 X140.837 Y79.114 E0.02365
G1 X140.837 Y82.587 E0.10891
G1 X140.083 Y82.587 E0.02365
G1 X140.083 Y79.114 E0.10891
G1 X139.329 Y79.114 E0.02365
G1 X139.329 Y82.587 E0.10891
G1 X138.575 Y82.587 E0.02365
G1 X138.575 Y79.114 E0.10891
G1 X137.821 Y79.114 E0.02365
G1 X137.821 Y82.587 E0.10891
G1 X137.067 Y82.587 E0.02365
G1 X137.067 Y79.114 E0.10891
G1 X136.312 Y79.114 E0.02365
G1 X136.312 Y82.587 E0.10891
G1 X135.558 Y82.587 E0.02365
G1 X135.558 Y79.114 E0.10891
G1 X134.804 Y79.114 E0.02365
G1 X134.804 Y82.587 E0.10891
G1 X134.050 Y82.587 E0.02365
G1 X134.050 Y79.114 E0.10891
G1 X133.296 Y79.114 E0.02365
G1 X133.296 Y82.587 E0.10891
G1 X132.542 Y82.587 E0.02365
G1 X132.542 Y79.114 E0.10891
G1 X131.787 Y79.114 E0.02365
G1 X131.787 Y82.587 E0.10891
G1 X131.033 Y82.587 E0.02365
G1 X131.033 Y79.114 E0.10891
G1 X130.279 Y79.114 E0.02365
G1 X130.279 Y82.587 E0.10891
G1 X129.525 Y82.587 E0.02365
G1 X129.525 Y79.114 E0.10891
G1 X128.771 Y79.114 E0.02365
G1 X128.771 Y82.587 E0.10891
G1 X128.017 Y82.587 E0.02365
G1 X128.017 Y79.114 E0.10891
G1 X127.262 Y79.114 E0.02365
G1 X127.262 Y82.587 E0.10891
G1 X126.508 Y82.587 E0.02365
G1 X126.508 Y79.114 E0.10891
G1 X125.754 Y79.114 E0.02365
G1 X125.754 Y82.587 E0.10891
G1 X125.000 Y82.587 E0.02365
G1 X125.000 Y79.114 E0.10891
G1 X124.246 Y79.114 E0.02365
G1 X124.246 Y82.587 E0.10891
G1 X123.492 Y82.587 E0.02365
G1 X123.492 Y79.114 E0.10891
G1 X122.738 Y79.114 E0.02365
G1 X122.738 Y82.587 E0.10891
G1 X121.983 Y82.587 E0.02365
G1 X121.983 Y79.114 E0.10891
G1 X121.229 Y79.114 E0.02365
G1 X121.229 Y82.587 E0.10891
G1 X120.475 Y82.587 E0.02365
G1 X120.475 Y79.114 E0.10891
G1 X119.721 Y79.114 E0.02365
G1 X119.721 Y82.587 E0.10891
G1 X118.967 Y82.587 E0.02365
G1 X118.967 Y79.114 E0.10891
G1 X118.213 Y79.114 E0.02365
G1 X118.213 Y82.587 E0.10891
G1 X117.458 Y82.587 E0.02365
G1 X117.458 Y78.944 E0.11423
;WIPE_START
G1 F8640.000
G1 X117.458 Y82.235 E-0.76000
;WIPE_END
G1 E-0.04000 F2100.000
G1 Z0.600 F10800.000
G1 X120.475 Y75.756
G1 Z0.200
G1 E0.80000 F2100.000
G1 F1200.000
G1 X120.475 Y72.043 E0.11642
G1 X121.229 Y72.043 E0.02365
G1 X121.229 Y75.586 E0.11110
G1 X121.983 Y75.586 E0.02365
G1 X121.983 Y72.043 E0.11110
G1 X122.738 Y72.043 E0.02365
G1 X122.738 Y75.586 E0.11110
G1 X123.492 Y75.586 E0.02365
G1 X123.492 Y72.043 E0.11110
G1 X124.246 Y72.043 E0.02365
G1 X124.246 Y75.586 E0.11110
G1 X125.000 Y75.586 E0.02365
G1 X125.000 Y72.043 E0.11110
G1 X125.754 Y72.043 E0.02365
G1 X125.754 Y75.586 E0.11110
G1 X126.508 Y75.586 E0.02365
G1 X126.508 Y72.043 E0.11110
G1 X127.262 Y72.043 E0.02365
G1 X127.262 Y75.586 E0.11110
G1 X128.017 Y75.586 E0.02365
G1 X128.017 Y72.043 E0.11110
G1 X128.771 Y72.043 E0.02365
G1 X128.771 Y75.586 E0.11110
G1 X129.525 Y75.586 E0.02365
G1 X129.525 Y72.043 E0.11110
G1 X130.279 Y72.043 E0.02365
G1 X130.279 Y75.586 E0.11110
G1 X131.033 Y75.586 E0.02365
G1 X131.033 Y72.043 E0.11110
G1 X131.787 Y72.043 E0.02365
G1 X131.787 Y75.586 E0.11110
G1 X132.542 Y75.586 E0.02365
G1 X132.542 Y72.043 E0.11110
G1 X133.296 Y72.043 E0.02365
G1 X133.296 Y75.586 E0.11110
G1 X134.050 Y75.586 E0.02365
G1 X134.050 Y72.043 E0.11110
G1 X134.804 Y72.043 E0.02365
G1 X134.804 Y75.586 E0.11110
G1 X135.558 Y75.586 E0.02365
G1 X135.558 Y72.043 E0.11110
G1 X136.312 Y72.043 E0.02365
G1 X136.312 Y75.586 E0.11110
G1 X137.067 Y75.586 E0.02365
G1 X137.067 Y72.043 E0.11110
G1 X137.821 Y72.043 E0.02365
G1 X137.821 Y75.586 E0.11110
G1 X138.575 Y75.586 E0.02365
G1 X138.575 Y72.043 E0.11110
G1 X139.329 Y72.043 E0.02365
G1 X139.329 Y75.586 E0.11110
G1 X140.083 Y75.586 E0.02365
G1 X140.083 Y72.043 E0.11110
G1 X140.837 Y72.043 E0.02365
G1 X140.837 Y75.586 E0.11110
G1 X141.592 Y75.586 E0.02365
G1 X141.592 Y72.043 E0.11110
G1 X142.346 Y72.043 E0.02365
G1 X142.346 Y75.586 E0.11110
G1 X143.100 Y75.586 E0.02365
G1 X143.100 Y72.043 E0.11110
G1 X143.854 Y72.043 E0.02365
G1 X143.854 Y75.756 E0.11642
;WIPE_START
G1 F8640.000
G1 X143.854 Y72.465 E-0.76000
;WIPE_END
G1 E-0.04000 F2100.000
G1 Z0.600 F10800.000
G1 X145.362 Y75.756
G1 Z0.200
G1 E0.80000 F2100.000
G1 F1200.000
G1 X145.362 Y72.043 E0.11642
G1 X146.116 Y72.043 E0.02365
G1 X146.116 Y75.586 E0.11110
G1 X146.871 Y75.586 E0.02365
G1 X146.871 Y72.043 E0.11110
G1 X147.625 Y72.043 E0.02365
G1 X147.625 Y75.586 E0.11110
G1 X148.379 Y75.586 E0.02365
G1 X148.379 Y72.043 E0.11110
G1 X149.133 Y72.043 E0.02365
G1 X149.133 Y75.586 E0.11110
G1 X149.887 Y75.586 E0.02365
G1 X149.887 Y72.043 E0.11110
G1 X150.641 Y72.043 E0.02365
G1 X150.641 Y75.586 E0.11110
G1 X151.396 Y75.586 E0.02365
G1 X151.396 Y72.043 E0.11110
G1 X152.150 Y72.043 E0.02365
G1 X152.150 Y75.586 E0.11110
G1 X152.904 Y75.586 E0.02365
G1 X152.904 Y72.043 E0.11110
G1 X153.658 Y72.043 E0.02365
G1 X153.658 Y75.586 E0.11110
G1 X154.412 Y75.586 E0.02365
G1 X154.412 Y72.043 E0.11110
G1 X155.166 Y72.043 E0.02365
G1 X155.166 Y75.586 E0.11110
G1 X155.921 Y75.586 E0.02365
G1 X155.921 Y72.043 E0.11110
G1 X156.675 Y72.043 E0.02365
G1 X156.675 Y75.586 E0.11110
G1 X157.429 Y75.586 E0.02365
G1 X157.429 Y72.043 E0.11110
M73 P1 R120
G1 X158.183 Y72.043 E0.02365
G1 X158.183 Y75.586 E0.11110
G1 X158.937 Y75.586 E0.02365
G1 X158.937 Y72.043 E0.11110
M73 Q1 S122
G1 X159.691 Y72.043 E0.02365
G1 X159.691 Y75.586 E0.11110
G1 X160.445 Y75.586 E0.02365
G1 X160.445 Y72.043 E0.11110
G1 X161.200 Y72.043 E0.02365
G1 X161.200 Y75.586 E0.11110
G1 X161.954 Y75.586 E0.02365
G1 X161.954 Y72.043 E0.11110
G1 X162.708 Y72.043 E0.02365
G1 X162.708 Y75.586 E0.11110
G1 X163.462 Y75.586 E0.02365
G1 X163.462 Y72.043 E0.11110
G1 X164.216 Y72.043 E0.02365
G1 X164.216 Y75.586 E0.11110
G1 X164.970 Y75.586 E0.02365
G1 X164.970 Y72.043 E0.11110
G1 X165.725 Y72.043 E0.02365
G1 X165.725 Y75.586 E0.11110
G1 X166.479 Y75.586 E0.02365
G1 X166.479 Y72.043 E0.11110
G1 X167.233 Y72.043 E0.02365
G1 X167.233 Y75.586 E0.11110
G1 X167.987 Y75.586 E0.02365
G1 X167.987 Y72.043 E0.11110
G1 X168.741 Y72.043 E0.02365
G1 X168.741 Y75.586 E0.11110
G1 X169.495 Y75.586 E0.02365
G1 X169.495 Y72.043 E0.11110
