; generated by PrusaSlicer 2.3.2+win64 on 2021-09-28 at 18:32:35 UTC

; 

; external perimeters extrusion width = 0.45mm
; perimeters extrusion width = 0.45mm
; infill extrusion width = 0.45mm
; solid infill extrusion width = 0.45mm
; top infill extrusion width = 0.40mm
; support material extrusion width = 0.35mm
; first layer extrusion width = 0.42mm

M73 P0 R94
M73 Q0 S95
M201 X1000 Y1000 Z200 E5000 ; sets maximum accelerations, mm/sec^2
M203 X200 Y200 Z12 E120 ; sets maximum feedrates, mm/sec
M204 P1250 R1250 T1250 ; sets acceleration (P, T) and retract acceleration (R), mm/sec^2
M205 X8.00 Y8.00 Z0.40 E4.50 ; sets the jerk limits, mm/sec
M205 S0 T0 ; sets the minimum extruding and travel feed rate, mm/sec
M107
;TYPE:Custom
M862.3 P "MK3S" ; printer model check
M862.1 P0.4 ; nozzle diameter check
M115 U3.10.0 ; tell printer latest fw version
G90 ; use absolute coordinates
M83 ; extruder relative mode
M104 S215 ; set extruder temp
M140 S60 ; set bed temp
M190 S60 ; wait for bed temp
M109 S215 ; wait for extruder temp
G28 W ; home all without mesh bed level
G80 ; mesh bed leveling
G1 Y-3.0 F1000.0 ; go outside print area
G92 E0.0
G1 X60.0 E9.0 F1000.0 ; intro line
G1 X100.0 E12.5 F1000.0 ; intro line
G92 E0.0
M221 S95

; Don't change E values below. Excessive value can damage the printer.
M907 E430 ; set extruder motor current
G21 ; set units to millimeters
G90 ; use absolute coordinates
M83 ; use relative distances for extrusion
M900 K0.05 ; Filament gcode LA 1.5
M900 K30 ; Filament gcode LA 1.0
;LAYER_CHANGE
;Z:0.2
;HEIGHT:0.2
;BEFORE_LAYER_CHANGE
G92 E0.0
;0.2


G1 E-0.80000 F2100.000
G1 Z0.400 F10800.000
;AFTER_LAYER_CHANGE
;0.2
G1 X68.787 Y74.632
G1 Z0.200
G1 E0.80000 F2100.000
M204 S1000
;TYPE:Skirt
;WIDTH:0.42
G1 F1200.000
G1 X69.423 Y74.166 E0.02472
G1 X70.249 Y73.847 E0.02776
G1 X70.991 Y73.757 E0.02342
G1 X179.004 Y73.757 E3.38668
G1 X179.591 Y73.811 E0.01850
G1 X180.175 Y73.978 E0.01903
G1 X180.705 Y74.242 E0.01855
G1 X181.224 Y74.643 E0.02058
G1 X181.702 Y75.210 E0.02324
G1 X181.987 Y75.741 E0.01890
G1 X182.178 Y76.357 E0.02022
G1 X182.242 Y76.941 E0.01844
G1 X182.242 Y133.069 E1.75983
M73 Q0 S94
G1 X182.099 Y133.952 E0.02806
G1 X181.786 Y134.659 E0.02425
G1 X181.213 Y135.368 E0.02858
G1 X180.577 Y135.834 E0.02473
G1 X179.751 Y136.153 E0.02775
G1 X179.009 Y136.243 E0.02342
G1 X70.973 Y136.243 E3.38739
G1 X70.070 Y136.105 E0.02865
G1 X69.354 Y135.794 E0.02449
G1 X68.634 Y135.216 E0.02894
G1 X68.166 Y134.577 E0.02484
G1 X67.848 Y133.755 E0.02763
G1 X67.757 Y133.017 E0.02330
G1 X67.757 Y76.950 E1.75793
G1 X67.898 Y76.059 E0.02829
G1 X68.210 Y75.347 E0.02437
G1 X68.749 Y74.678 E0.02694
; printing object EnergyMonitor Case top v1.1.STL id:0 copy 0
;WIPE_START
G1 F8640.000
G1 X69.423 Y74.166 E-0.19550
G1 X70.249 Y73.847 E-0.20440
G1 X70.991 Y73.757 E-0.17248
G1 X71.803 Y73.757 E-0.18762
;WIPE_END
G1 E-0.04000 F2100.000
G1 Z0.600 F10800.000
G1 X123.060 Y103.880
G1 Z0.200
G1 E0.80000 F2100.000
;TYPE:Perimeter
G1 F1200.000
G1 X123.284 Y103.560 E0.01224
G1 X123.560 Y103.284 E0.01224
G1 X123.880 Y103.060 E0.01224
G1 X124.234 Y102.895 E0.01224
G1 X124.611 Y102.794 E0.01224
G1 X124.965 Y102.763 E0.01115
G1 X125.384 Y102.793 E0.01318
G1 X125.766 Y102.895 E0.01240
G1 X126.120 Y103.060 E0.01224
G1 X126.440 Y103.284 E0.01224
G1 X126.716 Y103.560 E0.01224
G1 X126.940 Y103.880 E0.01224
G1 X127.105 Y104.234 E0.01224
G1 X127.206 Y104.611 E0.01224
G1 X127.240 Y105.000 E0.01224
G1 X127.206 Y105.389 E0.01224
G1 X127.105 Y105.766 E0.01224
G1 X126.940 Y106.120 E0.01224
G1 X126.716 Y106.440 E0.01224
G1 X126.440 Y106.716 E0.01224
G1 X126.149 Y106.920 E0.01115
G1 X125.771 Y107.104 E0.01318
G1 X125.389 Y107.206 E0.01240
G1 X125.000 Y107.240 E0.01224
G1 X124.611 Y107.206 E0.01224
G1 X124.234 Y107.105 E0.01224
G1 X123.880 Y106.940 E0.01224
G1 X123.560 Y106.716 E0.01224
G1 X123.284 Y106.440 E0.01224
G1 X123.060 Y106.120 E0.01224
G1 X122.910 Y105.798 E0.01115
G1 X122.794 Y105.394 E0.01318
G1 X122.760 Y105.000 E0.01240
G1 X122.794 Y104.611 E0.01224
G1 X122.895 Y104.234 E0.01224
G1 X123.035 Y103.934 E0.01036
G1 X123.376 Y104.094 F10800.000
;TYPE:External perimeter
G1 F1200.000
G1 X123.574 Y103.803 E0.01101
G1 X123.803 Y103.574 E0.01017
G1 X124.069 Y103.388 E0.01017
G1 X124.363 Y103.251 E0.01017
G1 X124.677 Y103.167 E0.01017
G1 X124.968 Y103.141 E0.00917
G1 X125.322 Y103.166 E0.01111
G1 X125.637 Y103.251 E0.01023
G1 X125.931 Y103.388 E0.01017
G1 X126.197 Y103.574 E0.01017
G1 X126.426 Y103.803 E0.01017
G1 X126.612 Y104.069 E0.01017
G1 X126.749 Y104.363 E0.01017
G1 X126.833 Y104.677 E0.01017
G1 X126.862 Y105.000 E0.01017
G1 X126.833 Y105.323 E0.01017
G1 X126.749 Y105.637 E0.01017
G1 X126.612 Y105.931 E0.01017
G1 X126.426 Y106.197 E0.01017
G1 X126.197 Y106.426 E0.01017
G1 X125.957 Y106.594 E0.00917
G1 X125.638 Y106.749 E0.01111
G1 X125.323 Y106.833 E0.01023
G1 X125.000 Y106.862 E0.01017
G1 X124.677 Y106.833 E0.01017
G1 X124.363 Y106.749 E0.01017
G1 X124.069 Y106.612 E0.01017
G1 X123.803 Y106.426 E0.01017
G1 X123.574 Y106.197 E0.01017
G1 X123.388 Y105.931 E0.01017
G1 X123.264 Y105.666 E0.00917
G1 X123.167 Y105.325 E0.01111
G1 X123.138 Y105.000 E0.01023
G1 X123.167 Y104.677 E0.01017
G1 X123.251 Y104.363 E0.01017
G1 X123.351 Y104.148 E0.00745
G1 X123.198 Y103.791 F10800.000
;WIPE_START
G1 F8640.000
G1 X123.574 Y103.803 E-0.09478
G1 X123.803 Y103.574 E-0.07493
G1 X124.069 Y103.388 E-0.07493
G1 X124.363 Y103.251 E-0.07493
G1 X124.677 Y103.167 E-0.07493
G1 X124.968 Y103.141 E-0.06756
G1 X125.322 Y103.166 E-0.08179
G1 X125.637 Y103.251 E-0.07533
G1 X125.931 Y103.388 E-0.07493
G1 X126.165 Y103.552 E-0.06591
;WIPE_END
G1 E-0.04000 F2100.000
G1 Z0.600 F10800.000
G1 X106.787 Y104.148
G1 Z0.200
G1 E0.80000 F2100.000
;TYPE:Perimeter
G1 F1200.000
G1 X106.787 Y122.534 E0.57649
G1 X106.763 Y122.811 E0.00870
G1 X106.682 Y123.112 E0.00978
G1 X106.550 Y123.395 E0.00978
G1 X106.371 Y123.651 E0.00978
G1 X106.151 Y123.871 E0.00978
G1 X105.895 Y124.050 E0.00978
G1 X105.612 Y124.182 E0.00978
G1 X105.311 Y124.263 E0.00978
G1 X105.000 Y124.290 E0.00978
G1 X104.689 Y124.263 E0.00978
G1 X104.388 Y124.182 E0.00978
G1 X104.105 Y124.050 E0.00978
G1 X103.849 Y123.871 E0.00978
G1 X103.629 Y123.651 E0.00978
G1 X103.450 Y123.395 E0.00978
G1 X103.318 Y123.112 E0.00978
G1 X103.237 Y122.811 E0.00978
G1 X103.213 Y122.534 E0.00870
G1 X103.213 Y87.466 E1.09956
G1 X103.237 Y87.189 E0.00870
G1 X103.318 Y86.888 E0.00978
G1 X103.450 Y86.605 E0.00978
G1 X103.629 Y86.349 E0.00978
G1 X103.849 Y86.129 E0.00978
G1 X104.105 Y85.950 E0.00978
G1 X104.388 Y85.818 E0.00978
G1 X104.689 Y85.737 E0.00978
G1 X105.000 Y85.710 E0.00978
G1 X105.311 Y85.737 E0.00979
G1 X105.612 Y85.818 E0.00978
G1 X105.895 Y85.950 E0.00978
G1 X106.151 Y86.129 E0.00978
G1 X106.371 Y86.349 E0.00978
G1 X106.550 Y86.605 E0.00978
G1 X106.682 Y86.888 E0.00978
G1 X106.763 Y87.189 E0.00978
G1 X106.787 Y87.466 E0.00870
G1 X106.787 Y104.088 E0.52119
G1 X106.410 Y104.088 F10800.000
;TYPE:External perimeter
G1 F1200.000
G1 X106.410 Y122.518 E0.57785
G1 X106.390 Y122.745 E0.00715
G1 X106.326 Y122.983 E0.00771
G1 X106.222 Y123.206 E0.00772
G1 X106.081 Y123.407 E0.00771
G1 X105.907 Y123.581 E0.00771
G1 X105.706 Y123.722 E0.00771
G1 X105.483 Y123.826 E0.00771
G1 X105.245 Y123.890 E0.00771
G1 X105.000 Y123.912 E0.00771
G1 X104.755 Y123.890 E0.00771
G1 X104.517 Y123.826 E0.00771
G1 X104.294 Y123.722 E0.00771
G1 X104.093 Y123.581 E0.00771
G1 X103.919 Y123.407 E0.00771
G1 X103.778 Y123.206 E0.00771
G1 X103.674 Y122.983 E0.00771
G1 X103.610 Y122.745 E0.00771
G1 X103.590 Y122.518 E0.00715
G1 X103.590 Y87.482 E1.09852
G1 X103.610 Y87.255 E0.00715
G1 X103.674 Y87.017 E0.00771
G1 X103.778 Y86.794 E0.00771
G1 X103.919 Y86.593 E0.00772
G1 X104.093 Y86.419 E0.00771
G1 X104.294 Y86.278 E0.00771
G1 X104.517 Y86.174 E0.00772
G1 X104.755 Y86.110 E0.00771
G1 X105.000 Y86.088 E0.00771
G1 X105.245 Y86.110 E0.00772
G1 X105.483 Y86.174 E0.00772
G1 X105.706 Y86.278 E0.00772
G1 X105.907 Y86.419 E0.00771
G1 X106.081 Y86.593 E0.00771
G1 X106.222 Y86.794 E0.00771
G1 X106.326 Y87.017 E0.00771
G1 X106.390 Y87.255 E0.00771
G1 X106.410 Y87.482 E0.00715
G1 X106.410 Y104.028 E0.51879
G1 X106.756 Y104.288 F10800.000
;WIPE_START
G1 F8640.000
G1 X106.410 Y107.320 E-0.76000
;WIPE_END
G1 E-0.04000 F2100.000
G1 Z0.600 F10800.000
G1 X99.287 Y104.028
G1 Z0.200
G1 E0.80000 F2100.000
;TYPE:Perimeter
G1 F1200.000
G1 X99.287 Y122.534 E0.58025
M73 P0 R93
G1 X99.263 Y122.811 E0.00870
G1 X99.182 Y123.112 E0.00978
G1 X99.050 Y123.395 E0.00978
G1 X98.871 Y123.651 E0.00978
G1 X98.651 Y123.871 E0.00978
G1 X98.395 Y124.050 E0.00978
G1 X98.112 Y124.182 E0.00978
G1 X97.811 Y124.263 E0.00978
G1 X97.500 Y124.290 E0.00978
G1 X97.189 Y124.263 E0.00978
G1 X96.888 Y124.182 E0.00978
G1 X96.605 Y124.050 E0.00978
G1 X96.349 Y123.871 E0.00978
G1 X96.129 Y123.651 E0.00978
G1 X95.950 Y123.395 E0.00978
G1 X95.818 Y123.112 E0.00978
G1 X95.737 Y122.811 E0.00978
G1 X95.713 Y122.534 E0.00870
G1 X95.713 Y87.466 E1.09956
G1 X95.737 Y87.189 E0.00870
G1 X95.818 Y86.888 E0.00978
G1 X95.950 Y86.605 E0.00978
G1 X96.129 Y86.349 E0.00978
G1 X96.349 Y86.129 E0.00978
G1 X96.605 Y85.950 E0.00978
G1 X96.888 Y85.818 E0.00978
G1 X97.189 Y85.737 E0.00978
G1 X97.500 Y85.710 E0.00978
G1 X97.811 Y85.737 E0.00979
G1 X98.112 Y85.818 E0.00979
G1 X98.395 Y85.950 E0.00978
G1 X98.651 Y86.129 E0.00978
G1 X98.871 Y86.349 E0.00978
G1 X99.050 Y86.605 E0.00978
G1 X99.182 Y86.888 E0.00978
G1 X99.263 Y87.189 E0.00978
G1 X99.287 Y87.466 E0.00870
G1 X99.287 Y103.968 E0.51742
G1 X98.910 Y103.968 F10800.000
;TYPE:External perimeter
G1 F1200.000
G1 X98.910 Y122.518 E0.58162
G1 X98.890 Y122.745 E0.00715
G1 X98.826 Y122.983 E0.00771
G1 X98.722 Y123.206 E0.00772
G1 X98.581 Y123.407 E0.00771
G1 X98.407 Y123.581 E0.00771
G1 X98.206 Y123.722 E0.00771
G1 X97.983 Y123.826 E0.00771
G1 X97.745 Y123.890 E0.00771
G1 X97.500 Y123.912 E0.00771
G1 X97.255 Y123.890 E0.00771
G1 X97.017 Y123.826 E0.00771
G1 X96.794 Y123.722 E0.00771
G1 X96.593 Y123.581 E0.00771
G1 X96.419 Y123.407 E0.00771
G1 X96.278 Y123.206 E0.00771
G1 X96.174 Y122.983 E0.00771
G1 X96.110 Y122.745 E0.00771
G1 X96.090 Y122.518 E0.00715
G1 X96.090 Y87.482 E1.09852
G1 X96.110 Y87.255 E0.00715
G1 X96.174 Y87.017 E0.00771
G1 X96.278 Y86.794 E0.00771
G1 X96.419 Y86.593 E0.00772
G1 X96.593 Y86.419 E0.00771
G1 X96.794 Y86.278 E0.00771
G1 X97.017 Y86.174 E0.00772
G1 X97.255 Y86.110 E0.00772
G1 X97.500 Y86.088 E0.00771
G1 X97.745 Y86.110 E0.00772
G1 X97.983 Y86.174 E0.00772
G1 X98.206 Y86.278 E0.00771
G1 X98.407 Y86.419 E0.00771
G1 X98.581 Y86.593 E0.00771
G1 X98.722 Y86.794 E0.00772
G1 X98.826 Y87.017 E0.00771
G1 X98.890 Y87.255 E0.00771
G1 X98.910 Y87.482 E0.00715
G1 X98.910 Y103.908 E0.51503
G1 X99.256 Y104.168 F10800.000
;WIPE_START
G1 F8640.000
G1 X98.910 Y107.200 E-0.76000
;WIPE_END
G1 E-0.04000 F2100.000
G1 Z0.600 F10800.000
G1 X91.787 Y103.908
G1 Z0.200
G1 E0.80000 F2100.000
;TYPE:Perimeter
G1 F1200.000
G1 X91.787 Y122.534 E0.58401
G1 X91.763 Y122.811 E0.00870
G1 X91.682 Y123.112 E0.00978
G1 X91.550 Y123.395 E0.00978
G1 X91.371 Y123.651 E0.00978
G1 X91.151 Y123.871 E0.00978
G1 X90.895 Y124.050 E0.00978
G1 X90.612 Y124.182 E0.00978
G1 X90.311 Y124.263 E0.00978
G1 X90.000 Y124.290 E0.00978
G1 X89.689 Y124.263 E0.00978
G1 X89.388 Y124.182 E0.00978
G1 X89.105 Y124.050 E0.00978
G1 X88.849 Y123.871 E0.00978
G1 X88.629 Y123.651 E0.00978
G1 X88.450 Y123.395 E0.00978
G1 X88.318 Y123.112 E0.00978
G1 X88.237 Y122.811 E0.00978
G1 X88.213 Y122.534 E0.00870
G1 X88.213 Y87.466 E1.09956
G1 X88.237 Y87.189 E0.00870
G1 X88.318 Y86.888 E0.00978
G1 X88.450 Y86.605 E0.00978
G1 X88.629 Y86.349 E0.00978
G1 X88.849 Y86.129 E0.00978
G1 X89.105 Y85.950 E0.00978
G1 X89.388 Y85.818 E0.00978
G1 X89.689 Y85.737 E0.00978
G1 X90.000 Y85.710 E0.00978
G1 X90.311 Y85.737 E0.00979
G1 X90.612 Y85.818 E0.00979
G1 X90.895 Y85.950 E0.00978
G1 X91.151 Y86.129 E0.00978
G1 X91.371 Y86.349 E0.00978
G1 X91.550 Y86.605 E0.00978
G1 X91.682 Y86.888 E0.00978
G1 X91.763 Y87.189 E0.00978
G1 X91.787 Y87.466 E0.00870
G1 X91.787 Y103.848 E0.51366
G1 X91.410 Y103.848 F10800.000
;TYPE:External perimeter
G1 F1200.000
G1 X91.410 Y122.518 E0.58538
G1 X91.390 Y122.745 E0.00715
G1 X91.326 Y122.983 E0.00771
G1 X91.222 Y123.206 E0.00771
G1 X91.081 Y123.407 E0.00771
G1 X90.907 Y123.581 E0.00771
G1 X90.706 Y123.722 E0.00771
G1 X90.483 Y123.826 E0.00771
G1 X90.245 Y123.890 E0.00771
G1 X90.000 Y123.912 E0.00771
G1 X89.755 Y123.890 E0.00771
G1 X89.517 Y123.826 E0.00771
G1 X89.294 Y123.722 E0.00771
G1 X89.093 Y123.581 E0.00771
G1 X88.919 Y123.407 E0.00771
G1 X88.778 Y123.206 E0.00772
G1 X88.674 Y122.983 E0.00771
G1 X88.610 Y122.745 E0.00771
G1 X88.590 Y122.518 E0.00715
G1 X88.590 Y87.482 E1.09852
G1 X88.610 Y87.255 E0.00715
G1 X88.674 Y87.017 E0.00771
G1 X88.778 Y86.794 E0.00771
G1 X88.919 Y86.593 E0.00772
G1 X89.093 Y86.419 E0.00771
G1 X89.294 Y86.278 E0.00771
G1 X89.517 Y86.174 E0.00772
G1 X89.755 Y86.110 E0.00772
G1 X90.000 Y86.088 E0.00771
G1 X90.245 Y86.110 E0.00772
G1 X90.483 Y86.174 E0.00772
G1 X90.706 Y86.278 E0.00771
G1 X90.907 Y86.419 E0.00771
G1 X91.081 Y86.593 E0.00771
G1 X91.222 Y86.794 E0.00772
G1 X91.326 Y87.017 E0.00771
G1 X91.390 Y87.255 E0.00771
G1 X91.410 Y87.482 E0.00715
G1 X91.410 Y103.788 E0.51126
G1 X91.756 Y104.048 F10800.000
;WIPE_START
G1 F8640.000
G1 X91.410 Y107.080 E-0.76000
;WIPE_END
G1 E-0.04000 F2100.000
G1 Z0.600 F10800.000
G1 X143.213 Y103.788
G1 Z0.200
G1 E0.80000 F2100.000
;TYPE:Perimeter
G1 F1200.000
G1 X143.213 Y87.466 E0.51178
G1 X143.237 Y87.189 E0.00870
G1 X143.318 Y86.888 E0.00978
G1 X143.450 Y86.605 E0.00978
G1 X143.629 Y86.349 E0.00978
G1 X143.849 Y86.129 E0.00978
G1 X144.105 Y85.950 E0.00978
G1 X144.388 Y85.818 E0.00978
G1 X144.689 Y85.737 E0.00978
G1 X145.000 Y85.710 E0.00978
G1 X145.311 Y85.737 E0.00979
G1 X145.612 Y85.818 E0.00978
G1 X145.895 Y85.950 E0.00978
G1 X146.151 Y86.129 E0.00978
G1 X146.371 Y86.349 E0.00978
G1 X146.550 Y86.605 E0.00978
G1 X146.682 Y86.888 E0.00978
G1 X146.763 Y87.189 E0.00978
G1 X146.787 Y87.466 E0.00870
G1 X146.787 Y122.534 E1.09956
G1 X146.763 Y122.811 E0.00870
G1 X146.682 Y123.112 E0.00978
G1 X146.550 Y123.395 E0.00978
G1 X146.371 Y123.651 E0.00978
G1 X146.151 Y123.871 E0.00978
G1 X145.895 Y124.050 E0.00978
G1 X145.612 Y124.182 E0.00978
G1 X145.311 Y124.263 E0.00978
G1 X145.000 Y124.290 E0.00978
G1 X144.689 Y124.263 E0.00978
G1 X144.388 Y124.182 E0.00978
G1 X144.105 Y124.050 E0.00978
G1 X143.849 Y123.871 E0.00978
G1 X143.629 Y123.651 E0.00978
G1 X143.450 Y123.395 E0.00978
G1 X143.318 Y123.112 E0.00978
G1 X143.237 Y122.811 E0.00978
G1 X143.213 Y122.534 E0.00870
G1 X143.213 Y103.848 E0.58590
M73 P1 R93
M73 Q1 S94
G1 X143.590 Y103.848 F10800.000
;TYPE:External perimeter
G1 F1200.000
G1 X143.590 Y87.482 E0.51314
G1 X143.610 Y87.255 E0.00715
G1 X143.674 Y87.017 E0.00772
G1 X143.778 Y86.794 E0.00771
G1 X143.919 Y86.593 E0.00771
G1 X144.093 Y86.419 E0.00771
G1 X144.294 Y86.278 E0.00771
G1 X144.517 Y86.174 E0.00771
G1 X144.755 Y86.110 E0.00772
G1 X145.000 Y86.088 E0.00771
G1 X145.245 Y86.110 E0.00772
G1 X145.483 Y86.174 E0.00772
G1 X145.706 Y86.278 E0.00772
G1 X145.907 Y86.419 E0.00771
G1 X146.081 Y86.593 E0.00771
G1 X146.222 Y86.794 E0.00772
G1 X146.326 Y87.017 E0.00771
G1 X146.390 Y87.255 E0.00771
G1 X146.410 Y87.482 E0.00715
G1 X146.410 Y122.518 E1.09852
G1 X146.390 Y122.745 E0.00715
G1 X146.326 Y122.983 E0.00771
G1 X146.222 Y123.206 E0.00772
G1 X146.081 Y123.407 E0.00771
G1 X145.907 Y123.581 E0.00771
G1 X145.706 Y123.722 E0.00771
G1 X145.483 Y123.826 E0.00771
G1 X145.245 Y123.890 E0.00771
G1 X145.000 Y123.912 E0.00771
G1 X144.755 Y123.890 E0.00771
G1 X144.517 Y123.826 E0.00772
G1 X144.294 Y123.722 E0.00771
G1 X144.093 Y123.581 E0.00772
G1 X143.919 Y123.407 E0.00771
G1 X143.778 Y123.206 E0.00771
G1 X143.674 Y122.983 E0.00772
G1 X143.610 Y122.745 E0.00772
G1 X143.590 Y122.518 E0.00715
G1 X143.590 Y103.908 E0.58350
G1 X143.244 Y103.648 F10800.000
;WIPE_START
G1 F8640.000
G1 X143.590 Y100.617 E-0.76000
;WIPE_END
G1 E-0.04000 F2100.000
G1 Z0.600 F10800.000
G1 X150.713 Y103.908
G1 Z0.200
G1 E0.80000 F2100.000
;TYPE:Perimeter
G1 F1200.000
G1 X150.713 Y87.466 E0.51554
