; generated by PrusaSlicer 2.3.2+win64 on 2021-09-28 at 21:48:17 UTC

; 

; external perimeters extrusion width = 0.45mm
; perimeters extrusion width = 0.45mm
; infill extrusion width = 0.45mm
; solid infill extrusion width = 0.45mm
; top infill extrusion width = 0.40mm
; first layer extrusion width = 0.42mm

M73 P0 R3
M73 Q0 S3
M201 X1000 Y1000 Z200 E5000 ; sets maximum accelerations, mm/sec^2
M203 X200 Y200 Z12 E120 ; sets maximum feedrates, mm/sec
M204 P1250 R1250 T1250 ; sets acceleration (P, T) and retract acceleration (R), mm/sec^2
M205 X8.00 Y8.00 Z0.40 E4.50 ; sets the jerk limits, mm/sec
M205 S0 T0 ; sets the minimum extruding and travel feed rate, mm/sec
M107
;TYPE:Custom
M862.3 P "MK3S" ; printer model check
M862.1 P0.4 ; nozzle diameter check
M115 U3.10.0 ; tell printer latest fw version
G90 ; use absolute coordinates
M83 ; extruder relative mode
M104 S215 ; set extruder temp
M140 S60 ; set bed temp
M190 S60 ; wait for bed temp
M109 S215 ; wait for extruder temp
G28 W ; home all without mesh bed level
G80 ; mesh bed leveling
G1 Y-3.0 F1000.0 ; go outside print area
G92 E0.0
G1 X60.0 E9.0 F1000.0 ; intro line
M73 P2 R3
M73 Q2 S3
G1 X100.0 E12.5 F1000.0 ; intro line
G92 E0.0
M221 S95

; Don't change E values below. Excessive value can damage the printer.
M907 E430 ; set extruder motor current
G21 ; set units to millimeters
G90 ; use absolute coordinates
M83 ; use relative distances for extrusion
M900 K0.05 ; Filament gcode LA 1.5
M900 K30 ; Filament gcode LA 1.0
;LAYER_CHANGE
;Z:0.2
;HEIGHT:0.2
;BEFORE_LAYER_CHANGE
G92 E0.0
;0.2


M73 P3 R3
M73 Q3 S3
G1 E-0.80000 F2100.000
G1 Z0.400 F10800.000
;AFTER_LAYER_CHANGE
;0.2
G1 X121.061 Y102.001
M73 P4 R3
M73 Q4 S3
G1 Z0.200
G1 E0.80000 F2100.000
M204 S1000
;TYPE:Skirt
;WIDTH:0.42
G1 F915
G1 X121.642 Y101.362 E0.02709
G1 X122.110 Y100.980 E0.01892
G1 X122.640 Y100.648 E0.01961
G1 X123.387 Y100.320 E0.02560
G1 X124.210 Y100.112 E0.02660
G1 X124.809 Y100.053 E0.01889
G1 X125.433 Y100.068 E0.01958
G1 X126.267 Y100.214 E0.02653
G1 X127.036 Y100.487 E0.02561
G1 X127.589 Y100.780 E0.01962
G1 X128.084 Y101.127 E0.01895
G1 X128.758 Y101.776 E0.02933
G1 X129.122 Y102.257 E0.01893
G1 X129.435 Y102.799 E0.01962
G1 X129.736 Y103.559 E0.02561
G1 X129.913 Y104.387 E0.02655
G1 X129.951 Y105.010 E0.01958
G1 X129.913 Y105.611 E0.01889
G1 X129.745 Y106.411 E0.02561
G1 X129.436 Y107.199 E0.02655
G1 X129.123 Y107.740 E0.01959
G1 X128.760 Y108.221 E0.01889
G1 X128.179 Y108.795 E0.02562
G1 X127.485 Y109.282 E0.02658
G1 X126.947 Y109.552 E0.01888
G1 X126.358 Y109.761 E0.01960
M73 Q5 S3
G1 X125.557 Y109.919 E0.02558
G1 X124.715 Y109.943 E0.02642
G1 X124.146 Y109.877 E0.01797
G1 X123.566 Y109.736 E0.01870
G1 X122.677 Y109.372 E0.03013
G1 X122.061 Y108.984 E0.02282
M73 P5 R3
G1 X121.578 Y108.578 E0.01979
G1 X121.150 Y108.113 E0.01980
G1 X120.686 Y107.421 E0.02614
G1 X120.349 Y106.696 E0.02506
G1 X120.144 Y105.964 E0.02384
G1 X120.061 Y105.338 E0.01980
G1 X120.058 Y104.706 E0.01982
G1 X120.190 Y103.824 E0.02797
G1 X120.359 Y103.276 E0.01798
G1 X120.602 Y102.732 E0.01866
G1 X121.029 Y102.052 E0.02519
G1 X121.348 Y102.253 F10800.000
G1 F915
G1 X121.891 Y101.645 E0.02556
G1 X122.339 Y101.280 E0.01810
G1 X122.827 Y100.975 E0.01806
G1 X123.523 Y100.672 E0.02381
G1 X124.261 Y100.486 E0.02384
G1 X124.834 Y100.429 E0.01808
G1 X125.409 Y100.444 E0.01804
G1 X126.156 Y100.575 E0.02378
G1 X126.873 Y100.827 E0.02382
G1 X127.383 Y101.096 E0.01807
G1 X127.856 Y101.427 E0.01811
G1 X128.466 Y102.015 E0.02655
G1 X128.814 Y102.475 E0.01809
G1 X129.101 Y102.975 E0.01807
G1 X129.379 Y103.682 E0.02383
G1 X129.538 Y104.424 E0.02380
G1 X129.574 Y104.999 E0.01804
G1 X129.538 Y105.574 E0.01807
G1 X129.380 Y106.317 E0.02382
G1 X129.102 Y107.023 E0.02380
G1 X128.815 Y107.522 E0.01805
M73 Q6 S3
G1 X128.468 Y107.982 E0.01807
G1 X127.926 Y108.515 E0.02383
G1 X127.304 Y108.951 E0.02382
G1 X126.789 Y109.209 E0.01807
G1 X126.246 Y109.401 E0.01805
G1 X125.501 Y109.546 E0.02380
G1 X124.745 Y109.567 E0.02369
M73 P6 R3
G1 X124.201 Y109.503 E0.01717
G1 X123.669 Y109.373 E0.01717
G1 X122.863 Y109.044 E0.02731
G1 X122.294 Y108.687 E0.02107
G1 X121.831 Y108.297 E0.01898
G1 X121.438 Y107.869 E0.01821
G1 X121.021 Y107.248 E0.02346
G1 X120.707 Y106.579 E0.02318
G1 X120.516 Y105.901 E0.02207
G1 X120.436 Y105.301 E0.01898
G1 X120.435 Y104.720 E0.01823
G1 X120.555 Y103.921 E0.02531
G1 X120.716 Y103.398 E0.01717
G1 X120.940 Y102.899 E0.01715
G1 X121.316 Y102.304 E0.02207
G1 X121.633 Y102.504 F10800.000
G1 F915
G1 X122.141 Y101.928 E0.02409
G1 X122.549 Y101.594 E0.01653
G1 X123.015 Y101.302 E0.01724
G1 X123.631 Y101.033 E0.02108
G1 X124.312 Y100.860 E0.02203
G1 X124.859 Y100.806 E0.01724
G1 X125.385 Y100.821 E0.01648
G1 X126.047 Y100.936 E0.02108
G1 X126.710 Y101.167 E0.02201
G1 X127.196 Y101.424 E0.01723
G1 X127.627 Y101.727 E0.01652
G1 X128.174 Y102.255 E0.02384
G1 X128.493 Y102.674 E0.01651
G1 X128.767 Y103.151 E0.01726
G1 X129.014 Y103.777 E0.02109
G1 X129.162 Y104.463 E0.02202
G1 X129.197 Y104.987 E0.01647
G1 X129.162 Y105.536 E0.01723
G1 X129.014 Y106.222 E0.02201
M73 Q7 S3
G1 X128.768 Y106.848 E0.02110
G1 X128.507 Y107.305 E0.01649
G1 X128.175 Y107.744 E0.01726
G1 X127.696 Y108.216 E0.02109
G1 X127.122 Y108.621 E0.02201
G1 X126.631 Y108.867 E0.01723
G1 X126.134 Y109.041 E0.01650
M73 P7 R3
G1 X125.474 Y109.169 E0.02110
G1 X124.775 Y109.191 E0.02191
G1 X124.257 Y109.130 E0.01635
G1 X123.773 Y109.011 E0.01563
G1 X123.049 Y108.716 E0.02453
G1 X122.525 Y108.389 E0.01934
G1 X122.100 Y108.033 E0.01739
G1 X121.726 Y107.625 E0.01737
G1 X121.356 Y107.074 E0.02081
G1 X121.065 Y106.460 E0.02130
G1 X120.888 Y105.837 E0.02032
G1 X120.813 Y105.287 E0.01738
G1 X120.812 Y104.733 E0.01738
G1 X120.920 Y104.018 E0.02268
G1 X121.065 Y103.542 E0.01561
G1 X121.279 Y103.066 E0.01635
G1 X121.601 Y102.554 E0.01895
G1 X121.918 Y102.753 F10800.000
G1 F915
G1 X122.391 Y102.210 E0.02260
G1 X122.778 Y101.893 E0.01567
G1 X123.202 Y101.630 E0.01565
G1 X123.767 Y101.385 E0.01931
G1 X124.364 Y101.234 E0.01932
G1 X124.861 Y101.183 E0.01565
G1 X125.360 Y101.197 E0.01565
G1 X125.966 Y101.305 E0.01931
G1 X126.547 Y101.508 E0.01930
G1 X126.989 Y101.739 E0.01564
G1 X127.398 Y102.027 E0.01567
G1 X127.883 Y102.494 E0.02112
G1 X128.185 Y102.892 E0.01566
G1 X128.433 Y103.326 E0.01566
G1 X128.657 Y103.900 E0.01932
G1 X128.787 Y104.502 E0.01931
G1 X128.819 Y104.999 E0.01564
G1 X128.787 Y105.497 E0.01564
G1 X128.658 Y106.099 E0.01931
G1 X128.433 Y106.673 E0.01932
M73 Q8 S3
G1 X128.186 Y107.107 E0.01566
G1 X127.884 Y107.505 E0.01566
G1 X127.443 Y107.936 E0.01932
G1 X126.940 Y108.290 E0.01931
G1 X126.494 Y108.515 E0.01564
G1 X126.023 Y108.680 E0.01566
G1 X125.418 Y108.796 E0.01932
G1 X124.804 Y108.815 E0.01925
M73 P8 R3
G1 X124.336 Y108.761 E0.01479
G1 X123.877 Y108.648 E0.01482
G1 X123.233 Y108.386 E0.02178
G1 X122.756 Y108.091 E0.01761
G1 X122.369 Y107.769 E0.01578
G1 X122.013 Y107.381 E0.01651
G1 X121.690 Y106.899 E0.01819
G1 X121.423 Y106.340 E0.01942
G1 X121.259 Y105.771 E0.01856
G1 X121.190 Y105.274 E0.01575
G1 X121.189 Y104.747 E0.01652
G1 X121.284 Y104.115 E0.02004
G1 X121.422 Y103.663 E0.01479
G1 X121.617 Y103.233 E0.01481
G1 X121.886 Y102.804 E0.01588
G1 X122.205 Y103.005 F10800.000
G1 F915
G1 X122.263 Y102.912 E0.00345
G1 X122.642 Y102.492 E0.01774
G1 X122.988 Y102.207 E0.01405
G1 X123.389 Y101.958 E0.01481
G1 X123.876 Y101.747 E0.01662
G1 X124.418 Y101.607 E0.01756
G1 X124.863 Y101.560 E0.01403
G1 X125.335 Y101.574 E0.01481
G1 X125.857 Y101.666 E0.01662
G1 X126.385 Y101.849 E0.01751
G1 X126.803 Y102.067 E0.01478
G1 X127.168 Y102.326 E0.01404
G1 X127.591 Y102.734 E0.01843
G1 X127.877 Y103.110 E0.01480
G1 X128.098 Y103.500 E0.01405
G1 X128.292 Y103.995 E0.01668
G1 X128.412 Y104.541 E0.01751
G1 X128.442 Y105.011 E0.01478
G1 X128.412 Y105.458 E0.01404
G1 X128.300 Y105.978 E0.01666
G1 X128.099 Y106.499 E0.01752
G1 X127.865 Y106.909 E0.01480
G1 X127.592 Y107.265 E0.01405
G1 X127.212 Y107.637 E0.01668
G1 X126.757 Y107.960 E0.01751
G1 X126.336 Y108.172 E0.01478
G1 X125.912 Y108.319 E0.01405
G1 X125.390 Y108.420 E0.01668
M73 Q9 S3
G1 X124.833 Y108.438 E0.01748
G1 X124.391 Y108.388 E0.01394
G1 X123.982 Y108.285 E0.01324
G1 X123.417 Y108.057 E0.01909
G1 X122.987 Y107.792 E0.01585
G1 X122.621 Y107.487 E0.01493
G1 X122.301 Y107.137 E0.01485
G1 X122.024 Y106.723 E0.01564
M73 P9 R3
G1 X121.781 Y106.219 E0.01755
G1 X121.631 Y105.705 E0.01676
G1 X121.566 Y105.235 E0.01489
G1 X121.566 Y104.761 E0.01486
G1 X121.649 Y104.212 E0.01743
G1 X121.779 Y103.786 E0.01396
G1 X121.954 Y103.402 E0.01323
G1 X122.173 Y103.056 E0.01282
G1 X122.555 Y103.151 F10800.000
G1 F915
G1 X122.893 Y102.774 E0.01589
G1 X123.218 Y102.506 E0.01318
G1 X123.575 Y102.286 E0.01315
G1 X124.011 Y102.099 E0.01488
G1 X124.471 Y101.981 E0.01491
G1 X124.889 Y101.937 E0.01318
G1 X125.309 Y101.950 E0.01315
G1 X125.776 Y102.035 E0.01488
G1 X126.224 Y102.190 E0.01487
G1 X126.596 Y102.383 E0.01314
G1 X126.939 Y102.626 E0.01318
G1 X127.301 Y102.975 E0.01577
G1 X127.556 Y103.308 E0.01314
G1 X127.763 Y103.674 E0.01319
G1 X127.935 Y104.117 E0.01492
G1 X128.036 Y104.581 E0.01487
G1 X128.065 Y104.999 E0.01314
G1 X128.037 Y105.418 E0.01318
G1 X127.935 Y105.883 E0.01491
G1 X127.764 Y106.325 E0.01488
G1 X127.557 Y106.690 E0.01315
G1 X127.302 Y107.024 E0.01319
G1 X126.960 Y107.356 E0.01492
G1 X126.573 Y107.631 E0.01487
G1 X126.200 Y107.821 E0.01314
G1 X125.802 Y107.958 E0.01319
G1 X125.335 Y108.047 E0.01492
G1 X124.860 Y108.062 E0.01488
G1 X124.470 Y108.019 E0.01232
G1 X124.086 Y107.923 E0.01242
G1 X123.600 Y107.727 E0.01643
G1 X123.217 Y107.493 E0.01406
G1 X122.872 Y107.206 E0.01406
G1 X122.591 Y106.895 E0.01317
G1 X122.357 Y106.546 E0.01317
G1 X122.137 Y106.096 E0.01570
G1 X122.002 Y105.639 E0.01492
G1 X121.941 Y105.197 E0.01400
G1 X121.943 Y104.777 E0.01317
G1 X122.014 Y104.307 E0.01491
G1 X122.127 Y103.930 E0.01233
M73 Q10 S3
G1 X122.292 Y103.570 E0.01243
G1 X122.523 Y103.202 E0.01362
G1 X122.842 Y103.404 F10800.000
G1 F915
G1 X123.144 Y103.056 E0.01445
G1 X123.447 Y102.806 E0.01230
G1 X123.759 Y102.616 E0.01146
G1 X124.145 Y102.452 E0.01315
G1 X124.524 Y102.354 E0.01229
G1 X124.915 Y102.313 E0.01232
G1 X125.280 Y102.327 E0.01146
M73 P10 R3
G1 X125.693 Y102.403 E0.01315
G1 X126.064 Y102.531 E0.01230
G1 X126.389 Y102.699 E0.01147
G1 X126.709 Y102.925 E0.01230
G1 X127.011 Y103.216 E0.01315
G1 X127.234 Y103.506 E0.01146
G1 X127.428 Y103.847 E0.01230
G1 X127.578 Y104.238 E0.01314
G1 X127.661 Y104.622 E0.01230
G1 X127.688 Y104.987 E0.01147
G1 X127.661 Y105.379 E0.01232
G1 X127.578 Y105.762 E0.01229
G1 X127.428 Y106.153 E0.01315
G1 X127.249 Y106.472 E0.01146
G1 X127.011 Y106.784 E0.01230
G1 X126.709 Y107.075 E0.01314
G1 X126.389 Y107.301 E0.01230
G1 X126.064 Y107.469 E0.01147
G1 X125.693 Y107.597 E0.01230
G1 X125.281 Y107.673 E0.01314
G1 X124.889 Y107.686 E0.01230
G1 X124.525 Y107.646 E0.01147
G1 X124.191 Y107.561 E0.01079
G1 X123.781 Y107.396 E0.01386
G1 X123.447 Y107.194 E0.01225
G1 X123.124 Y106.926 E0.01315
G1 X122.881 Y106.653 E0.01146
G1 X122.689 Y106.367 E0.01079
G1 X122.494 Y105.971 E0.01385
G1 X122.373 Y105.571 E0.01309
G1 X122.318 Y105.183 E0.01230
G1 X122.318 Y104.818 E0.01146
G1 X122.379 Y104.402 E0.01317
G1 X122.485 Y104.052 E0.01146
G1 X122.629 Y103.740 E0.01079
G1 X122.810 Y103.454 E0.01059
; printing object reset pin.STL id:0 copy 0
G1 X123.307 Y103.783 F10800.000
;TYPE:External perimeter
G1 F915
G1 X123.550 Y103.496 E0.01180
G1 X123.785 Y103.301 E0.00956
G1 X124.045 Y103.142 E0.00956
G1 X124.326 Y103.023 E0.00956
G1 X124.621 Y102.946 E0.00956
G1 X124.924 Y102.912 E0.00956
G1 X125.208 Y102.923 E0.00891
G1 X125.529 Y102.979 E0.01024
G1 X125.817 Y103.077 E0.00953
G1 X126.088 Y103.217 E0.00956
G1 X126.336 Y103.394 E0.00956
G1 X126.556 Y103.606 E0.00956
G1 X126.742 Y103.847 E0.00956
G1 X126.891 Y104.113 E0.00956
G1 X127.000 Y104.398 E0.00956
G1 X127.067 Y104.696 E0.00956
G1 X127.089 Y105.000 E0.00956
G1 X127.067 Y105.304 E0.00956
G1 X127.000 Y105.602 E0.00956
G1 X126.891 Y105.887 E0.00956
G1 X126.742 Y106.153 E0.00956
G1 X126.556 Y106.394 E0.00956
G1 X126.336 Y106.606 E0.00956
G1 X126.088 Y106.783 E0.00956
G1 X125.817 Y106.923 E0.00956
G1 X125.528 Y107.021 E0.00956
G1 X125.228 Y107.076 E0.00956
M73 Q11 S3
G1 X124.924 Y107.088 E0.00956
G1 X124.621 Y107.054 E0.00956
G1 X124.326 Y106.977 E0.00956
G1 X124.064 Y106.866 E0.00891
G1 X123.784 Y106.698 E0.01024
G1 X123.550 Y106.504 E0.00953
G1 X123.347 Y106.277 E0.00956
G1 X123.178 Y106.022 E0.00956
G1 X123.049 Y105.746 E0.00956
G1 X122.961 Y105.454 E0.00956
G1 X122.917 Y105.152 E0.00956
G1 X122.917 Y104.848 E0.00956
M73 P11 R3
G1 X122.961 Y104.546 E0.00956
G1 X123.049 Y104.254 E0.00956
G1 X123.178 Y103.978 E0.00956
G1 X123.274 Y103.833 E0.00542
G1 X123.681 Y103.826 F10800.000
G1 X123.588 Y104.042
;TYPE:Perimeter
G1 F915
G1 X123.813 Y103.768 E0.01108
G1 X124.005 Y103.609 E0.00783
G1 X124.218 Y103.478 E0.00783
G1 X124.448 Y103.381 E0.00783
G1 X124.689 Y103.318 E0.00783
G1 X124.938 Y103.290 E0.00783
G1 X125.168 Y103.299 E0.00723
G1 X125.435 Y103.346 E0.00851
G1 X125.669 Y103.425 E0.00775
G1 X125.891 Y103.540 E0.00783
G1 X126.094 Y103.685 E0.00783
G1 X126.274 Y103.858 E0.00783
G1 X126.427 Y104.056 E0.00783
G1 X126.549 Y104.274 E0.00783
G1 X126.638 Y104.507 E0.00783
G1 X126.693 Y104.751 E0.00783
G1 X126.711 Y105.000 E0.00783
G1 X126.693 Y105.249 E0.00783
G1 X126.638 Y105.493 E0.00783
G1 X126.549 Y105.726 E0.00783
G1 X126.427 Y105.944 E0.00783
G1 X126.274 Y106.142 E0.00783
G1 X126.094 Y106.315 E0.00783
G1 X125.891 Y106.460 E0.00783
G1 X125.669 Y106.575 E0.00783
G1 X125.433 Y106.655 E0.00783
G1 X125.187 Y106.701 E0.00783
G1 X124.938 Y106.710 E0.00783
G1 X124.689 Y106.682 E0.00783
G1 X124.448 Y106.619 E0.00783
G1 X124.235 Y106.529 E0.00723
G1 X124.003 Y106.390 E0.00851
G1 X123.813 Y106.232 E0.00775
G1 X123.646 Y106.046 E0.00783
G1 X123.508 Y105.837 E0.00783
G1 X123.402 Y105.611 E0.00783
G1 X123.330 Y105.372 E0.00783
G1 X123.294 Y105.125 E0.00783
G1 X123.294 Y104.875 E0.00783
G1 X123.330 Y104.628 E0.00783
G1 X123.402 Y104.389 E0.00783
G1 X123.555 Y104.092 E0.01048
;WIPE_START
G1 F8640.000
G1 X123.813 Y103.768 E-0.09541
G1 X124.005 Y103.609 E-0.05767
G1 X124.218 Y103.478 E-0.05767
G1 X124.448 Y103.381 E-0.05767
G1 X124.689 Y103.318 E-0.05767
G1 X124.938 Y103.290 E-0.05767
G1 X125.168 Y103.299 E-0.05323
G1 X125.435 Y103.346 E-0.06267
G1 X125.669 Y103.425 E-0.05706
G1 X125.891 Y103.540 E-0.05767
G1 X126.094 Y103.685 E-0.05767
G1 X126.274 Y103.858 E-0.05767
G1 X126.354 Y103.962 E-0.03026
;WIPE_END
G1 E-0.04000 F2100.000
G1 Z0.600 F10800.000
G1 X126.525 Y104.529
G1 Z0.200
G1 E0.80000 F2100.000
;TYPE:Solid infill
;WIDTH:0.446658
G1 F915
G1 X125.866 Y103.870 E0.03128
G1 X125.744 Y103.782 E0.00508
G1 X125.558 Y103.686 E0.00699
G1 X125.365 Y103.620 E0.00686
G1 X125.001 Y103.576 E0.01229
G1 X126.427 Y105.001 E0.06769
G1 X126.412 Y105.208 E0.00695
G1 X126.339 Y105.484 E0.00959
G1 X124.515 Y103.660 E0.08661
M73 Q12 S3
G1 X124.347 Y103.731 E0.00610
G1 X124.144 Y103.860 E0.00809
G1 X126.139 Y105.855 E0.09468
M73 P12 R3
G1 X126.063 Y105.952 E0.00415
G1 X125.853 Y106.140 E0.00945
G1 X123.858 Y104.146 E0.09469
G1 X123.755 Y104.301 E0.00628
G1 X123.659 Y104.517 E0.00792
G1 X125.482 Y106.340 E0.08654
G1 X125.156 Y106.419 E0.01125
G1 X124.996 Y106.425 E0.00539
G1 X123.577 Y105.006 E0.06737
G1 X123.607 Y105.310 E0.01028
G1 X123.667 Y105.510 E0.00700
G1 X123.755 Y105.699 E0.00700
G1 X123.866 Y105.866 E0.00676
G1 X124.522 Y106.522 E0.03111
; stop printing object reset pin.STL id:0 copy 0
M106 S84.15
;LAYER_CHANGE
;Z:0.4
;HEIGHT:0.2
;BEFORE_LAYER_CHANGE
G92 E0.0
;0.4


;WIPE_START
G1 F8640.000
G1 X123.866 Y105.866 E-0.21395
G1 X123.755 Y105.699 E-0.04649
G1 X123.667 Y105.510 E-0.04811
G1 X123.607 Y105.310 E-0.04811
G1 X123.577 Y105.006 E-0.07072
G1 X124.595 Y106.024 E-0.33262
;WIPE_END
G1 E-0.04000 F2100.000
G1 Z0.600 F10800.000
;AFTER_LAYER_CHANGE
;0.4
M104 S210 ; set temperature
; printing object reset pin.STL id:0 copy 0
G1 X124.493 Y106.791
G1 Z0.400
G1 E0.80000 F2100.000
M204 S800
;TYPE:Perimeter
;WIDTH:0.45
G1 F900
G1 X124.138 Y106.654 E0.01290
G1 X123.914 Y106.518 E0.00886
