; generated by PrusaSlicer 2.3.2+win64 on 2021-10-03 at 20:38:06 UTC

; 

; external perimeters extrusion width = 0.45mm
; perimeters extrusion width = 0.45mm
; infill extrusion width = 0.45mm
; solid infill extrusion width = 0.45mm
; top infill extrusion width = 0.40mm
; support material extrusion width = 0.35mm
; first layer extrusion width = 0.42mm

; external perimeters extrusion width = 0.45mm
; perimeters extrusion width = 0.45mm
; infill extrusion width = 0.45mm
; solid infill extrusion width = 0.45mm
; top infill extrusion width = 0.40mm
; support material extrusion width = 0.35mm
; first layer extrusion width = 0.42mm

M73 P0 R255
M73 Q0 S258
M201 X1000 Y1000 Z200 E5000 ; sets maximum accelerations, mm/sec^2
M203 X200 Y200 Z12 E120 ; sets maximum feedrates, mm/sec
M204 P1250 R1250 T1250 ; sets acceleration (P, T) and retract acceleration (R), mm/sec^2
M205 X8.00 Y8.00 Z0.40 E4.50 ; sets the jerk limits, mm/sec
M205 S0 T0 ; sets the minimum extruding and travel feed rate, mm/sec
M107
;TYPE:Custom
M862.3 P "MK3S" ; printer model check
M862.1 P0.4 ; nozzle diameter check
M115 U3.10.0 ; tell printer latest fw version
G90 ; use absolute coordinates
M83 ; extruder relative mode
M104 S215 ; set extruder temp
M140 S60 ; set bed temp
M190 S60 ; wait for bed temp
M109 S215 ; wait for extruder temp
G28 W ; home all without mesh bed level
G80 ; mesh bed leveling
G1 Y-3.0 F1000.0 ; go outside print area
G92 E0.0
G1 X60.0 E9.0 F1000.0 ; intro line
G1 X100.0 E12.5 F1000.0 ; intro line
G92 E0.0
M221 S95

; Don't change E values below. Excessive value can damage the printer.
M907 E430 ; set extruder motor current
G21 ; set units to millimeters
G90 ; use absolute coordinates
M83 ; use relative distances for extrusion
M900 K0.05 ; Filament gcode LA 1.5
M900 K30 ; Filament gcode LA 1.0
;LAYER_CHANGE
;Z:0.2
;HEIGHT:0.2
;BEFORE_LAYER_CHANGE
G92 E0.0
;0.2


G1 E-0.80000 F2100.000
G1 Z0.400 F10800.000
;AFTER_LAYER_CHANGE
;0.2
G1 X68.424 Y74.816
G1 Z0.200
G1 E0.80000 F2100.000
M204 S1000
;TYPE:Skirt
;WIDTH:0.42
G1 F1200.000
G1 X69.287 Y74.090 E0.03536
G1 X77.824 Y69.247 E0.30773
G1 X78.284 Y69.047 E0.01574
G1 X78.776 Y68.948 E0.01574
G1 X133.300 Y68.768 E1.70957
M73 Q0 S257
G1 X172.815 Y68.957 E1.23899
G1 X173.350 Y69.090 E0.01728
G1 X173.842 Y69.345 E0.01740
G1 X181.021 Y74.297 E0.27344
G1 X181.685 Y74.956 E0.02935
G1 X182.186 Y75.882 E0.03300
G1 X182.377 Y76.972 E0.03469
G1 X182.377 Y133.004 E1.75685
G1 X182.325 Y133.588 E0.01840
G1 X182.173 Y134.156 E0.01842
G1 X181.922 Y134.694 E0.01861
G1 X181.576 Y135.184 E0.01881
G1 X181.160 Y135.596 E0.01834
G1 X180.678 Y135.930 E0.01842
G1 X180.139 Y136.179 E0.01861
G1 X179.555 Y136.331 E0.01890
G1 X143.970 Y141.229 E1.12627
G1 X82.740 Y141.232 E1.91982
G1 X73.551 Y141.057 E0.28818
G1 X72.819 Y140.886 E0.02355
G1 X72.175 Y140.494 E0.02367
G1 X71.777 Y140.059 E0.01846
G1 X68.176 Y134.848 E0.19860
G1 X67.845 Y134.203 E0.02275
G1 X63.802 Y118.944 E0.49493
G1 X63.811 Y98.004 E0.65657
G1 X67.684 Y76.362 E0.68935
G1 X67.987 Y75.480 E0.02926
G1 X68.391 Y74.866 E0.02303
; printing object EnergyMonitor Case v1.3.STL id:0 copy 0
;WIPE_START
G1 F8640.000
G1 X69.287 Y74.090 E-0.27372
G1 X71.119 Y73.051 E-0.48628
;WIPE_END
G1 E-0.04000 F2100.000
G1 Z0.600 F10800.000
G1 X78.996 Y75.756
G1 Z0.200
G1 E0.80000 F2100.000
;TYPE:Support material
G1 F1200.000
G1 X78.996 Y71.315 E0.13926
G1 X79.750 Y71.315 E0.02365
G1 X79.750 Y75.586 E0.13394
G1 X80.505 Y75.586 E0.02365
G1 X80.505 Y71.315 E0.13394
G1 X81.259 Y71.315 E0.02365
G1 X81.259 Y75.586 E0.13394
G1 X82.013 Y75.586 E0.02365
G1 X82.013 Y71.315 E0.13394
G1 X82.767 Y71.315 E0.02365
G1 X82.767 Y75.586 E0.13394
G1 X83.521 Y75.586 E0.02365
G1 X83.521 Y71.315 E0.13394
G1 X84.275 Y71.315 E0.02365
G1 X84.275 Y75.586 E0.13394
G1 X85.030 Y75.586 E0.02365
G1 X85.030 Y71.315 E0.13394
G1 X85.784 Y71.315 E0.02365
G1 X85.784 Y75.586 E0.13394
G1 X86.538 Y75.586 E0.02365
G1 X86.538 Y71.315 E0.13394
G1 X87.292 Y71.315 E0.02365
G1 X87.292 Y75.586 E0.13394
G1 X88.046 Y75.586 E0.02365
G1 X88.046 Y71.315 E0.13394
G1 X88.800 Y71.315 E0.02365
G1 X88.800 Y75.586 E0.13394
G1 X89.555 Y75.586 E0.02365
G1 X89.555 Y71.315 E0.13394
G1 X90.309 Y71.315 E0.02365
G1 X90.309 Y75.586 E0.13394
G1 X91.063 Y75.586 E0.02365
G1 X91.063 Y71.315 E0.13394
G1 X91.817 Y71.315 E0.02365
G1 X91.817 Y75.586 E0.13394
G1 X92.571 Y75.586 E0.02365
G1 X92.571 Y71.315 E0.13394
G1 X93.325 Y71.315 E0.02365
G1 X93.325 Y75.586 E0.13394
G1 X94.079 Y75.586 E0.02365
G1 X94.079 Y71.315 E0.13394
G1 X94.834 Y71.315 E0.02365
G1 X94.834 Y75.586 E0.13394
G1 X95.588 Y75.586 E0.02365
G1 X95.588 Y71.315 E0.13394
G1 X96.342 Y71.315 E0.02365
M73 P0 R254
G1 X96.342 Y75.586 E0.13394
G1 X97.096 Y75.586 E0.02365
G1 X97.096 Y71.315 E0.13394
G1 X97.850 Y71.315 E0.02365
G1 X97.850 Y75.586 E0.13394
G1 X98.604 Y75.586 E0.02365
G1 X98.604 Y71.315 E0.13394
G1 X99.359 Y71.315 E0.02365
G1 X99.359 Y75.586 E0.13394
G1 X100.113 Y75.586 E0.02365
G1 X100.113 Y71.315 E0.13394
G1 X100.867 Y71.315 E0.02365
G1 X100.867 Y75.586 E0.13394
G1 X101.621 Y75.586 E0.02365
G1 X101.621 Y71.315 E0.13394
G1 X102.375 Y71.315 E0.02365
G1 X102.375 Y75.586 E0.13394
G1 X103.129 Y75.586 E0.02365
G1 X103.129 Y71.315 E0.13394
G1 X103.884 Y71.315 E0.02365
G1 X103.884 Y75.586 E0.13394
G1 X104.638 Y75.586 E0.02365
G1 X104.638 Y71.315 E0.13394
G1 X105.392 Y71.315 E0.02365
G1 X105.392 Y75.586 E0.13394
G1 X106.146 Y75.586 E0.02365
G1 X106.146 Y71.315 E0.13394
G1 X106.900 Y71.315 E0.02365
G1 X106.900 Y75.586 E0.13394
G1 X107.654 Y75.586 E0.02365
G1 X107.654 Y71.315 E0.13394
G1 X108.409 Y71.315 E0.02365
G1 X108.409 Y75.586 E0.13394
G1 X109.163 Y75.586 E0.02365
G1 X109.163 Y71.315 E0.13394
G1 X109.917 Y71.315 E0.02365
G1 X109.917 Y75.586 E0.13394
G1 X110.671 Y75.586 E0.02365
G1 X110.671 Y71.315 E0.13394
G1 X111.425 Y71.315 E0.02365
G1 X111.425 Y75.756 E0.13926
;WIPE_START
G1 F8640.000
G1 X111.425 Y72.465 E-0.76000
;WIPE_END
G1 E-0.04000 F2100.000
G1 Z0.600 F10800.000
G1 X120.475 Y71.145
G1 Z0.200
G1 E0.80000 F2100.000
G1 F1200.000
G1 X120.475 Y75.586 E0.13926
G1 X121.229 Y75.586 E0.02365
G1 X121.229 Y71.315 E0.13394
G1 X121.983 Y71.315 E0.02365
G1 X121.983 Y75.586 E0.13394
G1 X122.738 Y75.586 E0.02365
G1 X122.738 Y71.315 E0.13394
G1 X123.492 Y71.315 E0.02365
G1 X123.492 Y75.586 E0.13394
G1 X124.246 Y75.586 E0.02365
G1 X124.246 Y71.315 E0.13394
G1 X125.000 Y71.315 E0.02365
G1 X125.000 Y75.586 E0.13394
G1 X125.754 Y75.586 E0.02365
G1 X125.754 Y71.315 E0.13394
G1 X126.508 Y71.315 E0.02365
G1 X126.508 Y75.586 E0.13394
G1 X127.262 Y75.586 E0.02365
G1 X127.262 Y71.315 E0.13394
G1 X128.017 Y71.315 E0.02365
G1 X128.017 Y75.586 E0.13394
G1 X128.771 Y75.586 E0.02365
G1 X128.771 Y71.315 E0.13394
G1 X129.525 Y71.315 E0.02365
G1 X129.525 Y75.586 E0.13394
G1 X130.279 Y75.586 E0.02365
G1 X130.279 Y71.315 E0.13394
G1 X131.033 Y71.315 E0.02365
G1 X131.033 Y75.756 E0.13926
;WIPE_START
G1 F8640.000
G1 X131.033 Y72.465 E-0.76000
;WIPE_END
G1 E-0.04000 F2100.000
G1 Z0.600 F10800.000
G1 X133.296 Y71.145
G1 Z0.200
G1 E0.80000 F2100.000
G1 F1200.000
G1 X133.296 Y75.586 E0.13926
G1 X134.050 Y75.586 E0.02365
G1 X134.050 Y71.315 E0.13394
G1 X134.804 Y71.315 E0.02365
G1 X134.804 Y75.586 E0.13394
G1 X135.558 Y75.586 E0.02365
G1 X135.558 Y71.315 E0.13394
G1 X136.312 Y71.315 E0.02365
G1 X136.312 Y75.586 E0.13394
G1 X137.067 Y75.586 E0.02365
G1 X137.067 Y71.315 E0.13394
G1 X137.821 Y71.315 E0.02365
G1 X137.821 Y75.586 E0.13394
G1 X138.575 Y75.586 E0.02365
G1 X138.575 Y71.315 E0.13394
G1 X139.329 Y71.315 E0.02365
G1 X139.329 Y75.586 E0.13394
G1 X140.083 Y75.586 E0.02365
G1 X140.083 Y71.315 E0.13394
G1 X140.837 Y71.315 E0.02365
G1 X140.837 Y75.586 E0.13394
G1 X141.592 Y75.586 E0.02365
G1 X141.592 Y71.315 E0.13394
G1 X142.346 Y71.315 E0.02365
G1 X142.346 Y75.586 E0.13394
G1 X143.100 Y75.586 E0.02365
G1 X143.100 Y71.315 E0.13394
G1 X143.854 Y71.315 E0.02365
G1 X143.854 Y75.756 E0.13926
;WIPE_START
G1 F8640.000
G1 X143.854 Y72.465 E-0.76000
;WIPE_END
G1 E-0.04000 F2100.000
G1 Z0.600 F10800.000
G1 X146.116 Y75.756
G1 Z0.200
G1 E0.80000 F2100.000
G1 F1200.000
G1 X146.116 Y71.315 E0.13926
G1 X146.871 Y71.315 E0.02365
G1 X146.871 Y75.586 E0.13394
G1 X147.625 Y75.586 E0.02365
G1 X147.625 Y71.315 E0.13394
G1 X148.379 Y71.315 E0.02365
G1 X148.379 Y75.586 E0.13394
G1 X149.133 Y75.586 E0.02365
G1 X149.133 Y71.315 E0.13394
G1 X149.887 Y71.315 E0.02365
G1 X149.887 Y75.586 E0.13394
G1 X150.641 Y75.586 E0.02365
G1 X150.641 Y71.315 E0.13394
G1 X151.396 Y71.315 E0.02365
G1 X151.396 Y75.586 E0.13394
G1 X152.150 Y75.586 E0.02365
G1 X152.150 Y71.315 E0.13394
G1 X152.904 Y71.315 E0.02365
G1 X152.904 Y75.586 E0.13394
G1 X153.658 Y75.586 E0.02365
G1 X153.658 Y71.315 E0.13394
G1 X154.412 Y71.315 E0.02365
G1 X154.412 Y75.586 E0.13394
G1 X155.166 Y75.586 E0.02365
G1 X155.166 Y71.315 E0.13394
G1 X155.921 Y71.315 E0.02365
G1 X155.921 Y75.586 E0.13394
G1 X156.675 Y75.586 E0.02365
G1 X156.675 Y71.315 E0.13394
G1 X157.429 Y71.315 E0.02365
G1 X157.429 Y75.586 E0.13394
G1 X158.183 Y75.586 E0.02365
G1 X158.183 Y71.315 E0.13394
G1 X158.937 Y71.315 E0.02365
G1 X158.937 Y75.586 E0.13394
G1 X159.691 Y75.586 E0.02365
G1 X159.691 Y71.315 E0.13394
G1 X160.445 Y71.315 E0.02365
G1 X160.445 Y75.586 E0.13394
G1 X161.200 Y75.586 E0.02365
G1 X161.200 Y71.315 E0.13394
G1 X161.954 Y71.315 E0.02365
G1 X161.954 Y75.586 E0.13394
G1 X162.708 Y75.586 E0.02365
G1 X162.708 Y71.315 E0.13394
G1 X163.462 Y71.315 E0.02365
G1 X163.462 Y75.586 E0.13394
G1 X164.216 Y75.586 E0.02365
G1 X164.216 Y71.315 E0.13394
G1 X164.970 Y71.315 E0.02365
G1 X164.970 Y75.586 E0.13394
G1 X165.725 Y75.586 E0.02365
G1 X165.725 Y71.315 E0.13394
G1 X166.479 Y71.315 E0.02365
G1 X166.479 Y75.586 E0.13394
G1 X167.233 Y75.586 E0.02365
G1 X167.233 Y71.315 E0.13394
G1 X167.987 Y71.315 E0.02365
G1 X167.987 Y75.586 E0.13394
G1 X168.741 Y75.586 E0.02365
G1 X168.741 Y71.315 E0.13394
G1 X169.495 Y71.315 E0.02365
G1 X169.495 Y75.586 E0.13394
G1 X170.250 Y75.586 E0.02365
G1 X170.250 Y71.315 E0.13394
G1 X171.004 Y71.315 E0.02365
G1 X171.004 Y75.586 E0.13394
G1 X171.758 Y75.586 E0.02365
G1 X171.758 Y71.315 E0.13394
G1 X172.512 Y71.315 E0.02365
G1 X172.512 Y75.756 E0.13926
;WIPE_START
G1 F8640.000
G1 X172.512 Y72.465 E-0.76000
;WIPE_END
G1 E-0.04000 F2100.000
G1 Z0.600 F10800.000
G1 X143.854 Y138.855
G1 Z0.200
G1 E0.80000 F2100.000
G1 F1200.000
G1 X143.854 Y134.414 E0.13926
G1 X143.100 Y134.414 E0.02365
G1 X143.100 Y138.685 E0.13394
G1 X142.346 Y138.685 E0.02365
G1 X142.346 Y134.414 E0.13394
G1 X141.591 Y134.414 E0.02365
G1 X141.591 Y138.685 E0.13394
G1 X140.837 Y138.685 E0.02365
G1 X140.837 Y134.414 E0.13394
G1 X140.083 Y134.414 E0.02365
G1 X140.083 Y138.685 E0.13394
G1 X139.329 Y138.685 E0.02365
G1 X139.329 Y134.414 E0.13394
G1 X138.575 Y134.414 E0.02365
G1 X138.575 Y138.685 E0.13394
G1 X137.821 Y138.685 E0.02365
G1 X137.821 Y134.414 E0.13394
G1 X137.067 Y134.414 E0.02365
G1 X137.067 Y138.685 E0.13394
G1 X136.312 Y138.685 E0.02365
G1 X136.312 Y134.414 E0.13394
G1 X135.558 Y134.414 E0.02365
G1 X135.558 Y138.685 E0.13394
G1 X134.804 Y138.685 E0.02365
G1 X134.804 Y134.414 E0.13394
G1 X134.050 Y134.414 E0.02365
G1 X134.050 Y138.685 E0.13394
G1 X133.296 Y138.685 E0.02365
G1 X133.296 Y134.414 E0.13394
G1 X132.542 Y134.414 E0.02365
G1 X132.542 Y138.685 E0.13394
G1 X131.787 Y138.685 E0.02365
G1 X131.787 Y134.414 E0.13394
G1 X131.033 Y134.414 E0.02365
G1 X131.033 Y138.685 E0.13394
G1 X130.279 Y138.685 E0.02365
G1 X130.279 Y134.414 E0.13394
G1 X129.525 Y134.414 E0.02365
G1 X129.525 Y138.685 E0.13394
G1 X128.771 Y138.685 E0.02365
G1 X128.771 Y134.414 E0.13394
G1 X128.017 Y134.414 E0.02365
G1 X128.017 Y138.685 E0.13394
G1 X127.262 Y138.685 E0.02365
G1 X127.262 Y134.414 E0.13394
G1 X126.508 Y134.414 E0.02365
G1 X126.508 Y138.685 E0.13394
G1 X125.754 Y138.685 E0.02365
G1 X125.754 Y134.414 E0.13394
G1 X125.000 Y134.414 E0.02365
G1 X125.000 Y138.685 E0.13394
G1 X124.246 Y138.685 E0.02365
G1 X124.246 Y134.414 E0.13394
G1 X123.492 Y134.414 E0.02365
G1 X123.492 Y138.685 E0.13394
G1 X122.738 Y138.685 E0.02365
G1 X122.738 Y134.414 E0.13394
G1 X121.983 Y134.414 E0.02365
G1 X121.983 Y138.685 E0.13394
G1 X121.229 Y138.685 E0.02365
G1 X121.229 Y134.414 E0.13394
G1 X120.475 Y134.414 E0.02365
G1 X120.475 Y138.685 E0.13394
G1 X119.721 Y138.685 E0.02365
G1 X119.721 Y134.414 E0.13394
G1 X118.967 Y134.414 E0.02365
G1 X118.967 Y138.855 E0.13926
;WIPE_START
G1 F8640.000
G1 X118.967 Y135.564 E-0.76000
;WIPE_END
G1 E-0.04000 F2100.000
G1 Z0.600 F10800.000
G1 X82.767 Y138.855
G1 Z0.200
G1 E0.80000 F2100.000
G1 F1200.000
G1 X82.767 Y134.414 E0.13926
G1 X82.013 Y134.414 E0.02365
G1 X82.013 Y138.685 E0.13394
G1 X81.259 Y138.685 E0.02365
G1 X81.259 Y134.414 E0.13394
G1 X80.505 Y134.414 E0.02365
G1 X80.505 Y138.685 E0.13394
M73 Q0 S256
G1 X79.750 Y138.685 E0.02365
G1 X79.750 Y134.414 E0.13394
G1 X78.996 Y134.414 E0.02365
G1 X78.996 Y138.685 E0.13394
G1 X78.242 Y138.685 E0.02365
G1 X78.242 Y134.414 E0.13394
G1 X77.488 Y134.414 E0.02365
G1 X77.488 Y138.685 E0.13394
G1 X76.734 Y138.685 E0.02365
G1 X76.734 Y134.414 E0.13394
G1 X75.980 Y134.414 E0.02365
G1 X75.980 Y138.685 E0.13394
G1 X75.226 Y138.685 E0.02365
G1 X75.226 Y134.414 E0.13394
G1 X74.471 Y134.414 E0.02365
G1 X74.471 Y138.685 E0.13394
G1 X73.717 Y138.685 E0.02365
G1 X73.717 Y134.244 E0.13926
;WIPE_START
G1 F8640.000
G1 X73.717 Y137.535 E-0.76000
;WIPE_END
G1 E-0.04000 F2100.000
G1 Z0.600 F10800.000
G1 X69.192 Y118.977
G1 Z0.200
G1 E0.80000 F2100.000
G1 F1200.000
G1 X69.192 Y98.421 E0.64452
G1 X68.438 Y98.421 E0.02365
G1 X68.438 Y118.807 E0.63920
G1 X67.684 Y118.807 E0.02365
G1 X67.684 Y98.421 E0.63920
G1 X66.930 Y98.421 E0.02365
G1 X66.930 Y118.807 E0.63920
G1 X66.176 Y118.807 E0.02365
G1 X66.176 Y98.251 E0.64452
;WIPE_START
G1 F8640.000
G1 X66.176 Y101.543 E-0.76000
;WIPE_END
G1 E-0.04000 F2100.000
G1 Z0.600 F10800.000
G1 X161.352 Y105.207
G1 Z0.200
G1 E0.80000 F2100.000
;TYPE:Perimeter
G1 F1200.000
G1 X161.408 Y104.563 E0.02028
G1 X161.572 Y103.949 E0.01993
G1 X161.841 Y103.373 E0.01993
G1 X162.206 Y102.852 E0.01993
G1 X162.655 Y102.402 E0.01993
G1 X163.176 Y102.038 E0.01993
G1 X163.752 Y101.769 E0.01993
G1 X164.366 Y101.605 E0.01993
G1 X164.947 Y101.554 E0.01827
G1 X165.622 Y101.602 E0.02123
G1 X166.247 Y101.769 E0.02028
G1 X166.823 Y102.038 E0.01993
G1 X167.344 Y102.402 E0.01993
G1 X167.793 Y102.852 E0.01993
G1 X168.158 Y103.373 E0.01993
G1 X168.427 Y103.949 E0.01993
G1 X168.591 Y104.563 E0.01993
G1 X168.647 Y105.196 E0.01993
G1 X168.591 Y105.830 E0.01993
G1 X168.427 Y106.444 E0.01993
G1 X168.158 Y107.020 E0.01993
G1 X167.793 Y107.541 E0.01993
G1 X167.344 Y107.990 E0.01993
G1 X166.823 Y108.355 E0.01993
G1 X166.247 Y108.623 E0.01993
G1 X165.633 Y108.788 E0.01993
G1 X165.000 Y108.843 E0.01993
G1 X164.366 Y108.788 E0.01993
G1 X163.752 Y108.623 E0.01993
G1 X163.176 Y108.355 E0.01993
G1 X162.655 Y107.990 E0.01993
G1 X162.206 Y107.541 E0.01993
G1 X161.841 Y107.020 E0.01993
G1 X161.572 Y106.444 E0.01993
G1 X161.422 Y105.881 E0.01827
G1 X161.358 Y105.267 E0.01935
G1 X161.733 Y105.228 F10800.000
G1 F1200.000
G1 X161.781 Y104.629 E0.01885
G1 X161.928 Y104.078 E0.01786
G1 X162.169 Y103.562 E0.01786
G1 X162.496 Y103.095 E0.01786
G1 X162.899 Y102.692 E0.01786
G1 X163.365 Y102.366 E0.01786
G1 X163.882 Y102.125 E0.01786
G1 X164.432 Y101.977 E0.01786
G1 X164.950 Y101.932 E0.01630
G1 X165.560 Y101.975 E0.01916
G1 X166.118 Y102.125 E0.01812
G1 X166.634 Y102.366 E0.01786
G1 X167.101 Y102.692 E0.01786
G1 X167.504 Y103.095 E0.01786
G1 X167.830 Y103.562 E0.01786
G1 X168.071 Y104.078 E0.01786
G1 X168.219 Y104.629 E0.01786
G1 X168.268 Y105.196 E0.01786
G1 X168.219 Y105.764 E0.01786
G1 X168.071 Y106.314 E0.01786
G1 X167.830 Y106.831 E0.01786
G1 X167.504 Y107.297 E0.01786
G1 X167.101 Y107.700 E0.01786
G1 X166.634 Y108.027 E0.01786
G1 X166.118 Y108.268 E0.01786
G1 X165.567 Y108.415 E0.01786
G1 X165.000 Y108.465 E0.01786
G1 X164.432 Y108.415 E0.01786
G1 X163.882 Y108.268 E0.01786
G1 X163.365 Y108.027 E0.01786
G1 X162.899 Y107.700 E0.01786
G1 X162.496 Y107.297 E0.01786
G1 X162.169 Y106.831 E0.01786
G1 X161.928 Y106.314 E0.01786
G1 X161.794 Y105.812 E0.01630
G1 X161.739 Y105.288 E0.01653
